!!!!SEGMENT: pl-cz--ii-241--005_zeidler-jozef--missa-d-benedictus.krn
!!!cenid: 18xx:300
!!!COM: Zeidler, Józef
!!!COM-rismID: pe30003401
!!!CDT: ~1744-1806
!!!CNT: Polish
!!!OPR: Missa D
!!!OTL: Benedictus
!!!OMV: 005
!!!PDT: 1818
!!!AGN: Sacred; Mass
!!!SMS-siglum: PL-CZ
!!!SMS-shelfmark: II-241
!!!SMS-shelfwork: 001-005 M
!!!NIFC-rismSourceID:
!!!NIFC-islandoraID: pl-cz:33260
!!!URL-pdf-islandora: https://repozytorium.nifc.pl/islandora/object/pl-cz%3A33260/datastream/PDF/view
!!!URL-scan:
!!!ONB-nifc: UWAGA: części Mszy: Kyrie, Gloria, Patrem, Sanctus, Benedictus, Agnus dei. Dona nobis
!!!AIN: 1 alto 1 bass 2 empty 1 organ 1 tenor 2 violn 1 vox
!!!key:
**kern	**fb	**kern	**dynam	**kern	**kern	**kern	**text	**kern	**kern	**dynam	**kern	**dynam	**kern	**kern
*part9	*	*part9	*part9	*part6	*part5	*part4	*part4	*part3	*part8	*part8	*part7	*part7	*part2	*part1
*staff10	*	*staff9	*	*staff6	*staff5	*staff4	*staff4	*staff3	*staff8	*	*staff7	*	*staff2	*staff1
*Iorgan	*	*Iempty	*	*Ibass	*Itenor	*Ialto	*	*Ivox	*Ivioln	*	*Ivioln	*	*Iempty	*Iempty
*I"Organo	*	*	*	*I"Basso.	*I"Tenore	*I"Alto	*	*I"Canto.	*I"Violino Secundo	*	*I"Violino Primo	*	*I"Cornu Secundo in D.	*I"Cornu Primo in D.
*I'Org.	*	*	*	*I'B.	*I'T.	*I'A.	*	*I'C.	*I'V-no II	*	*I'V-no I	*	*I'C. II in D	*I'C. I in D
*group4	*	*group4	*	*group3	*group3	*group3	*	*group3	*group2	*	*group2	*	*group1	*group1
*clefF4	*	*clefC1	*	*clefF4	*clefC4	*clefC3	*	*clefC1	*clefG2	*	*clefG2	*	*clefG2	*clefG2
*	*	*	*	*	*	*	*	*	*	*	*	*	*ITrd6c10	*ITrd6c10
*k[f#]	*	*k[f#]	*	*k[f#]	*k[f#]	*k[f#]	*	*k[f#]	*k[f#]	*	*k[f#]	*	*k[f#]	*k[f#]
*G:	*	*G:	*	*G:	*G:	*G:	*	*G:	*G:	*	*G:	*	*G:	*G:
*M4/4	*	*M4/4	*	*M4/4	*M4/4	*M4/4	*	*M4/4	*M4/4	*	*M4/4	*	*M4/4	*M4/4
*met(c)	*	*met(c)	*	*met(c)	*met(c)	*met(c)	*	*met(c)	*met(c)	*	*met(c)	*	*met(c)	*met(c)
=1	=1	=1	=1	=1	=1	=1	=1	=1	=1	=1	=1	=1	=1	=1
!LO:TX:a:t=problem: Caudy po lewej stronie	!	!	!	!	!	!LO:TX:b:t=niech niczem będzie	!	!	!LO:TX:a:t=problem: Caudy po lewej stronie	!	!LO:TX:a:t=problem: Caudy po lewej stronie	!	!	!
!	!	!LO:TX:a:t =Andate Solo.	!	!LO:TX:a:t=Benedictus Tacet	!LO:TX:a:t=Benedictus Tacet	!LO:TX:a:t=andante	!	!LO:TX:a:t=Benedictus Tacet \nAlto Solo	!LO:TX:b:t=andate	!	!LO:TX:b:t=Andante	!	!LO:TX:a:t=Bene Tacet	!LO:TX:a:t=Benedictus Tacet
!	!	!	!	!	!	!LO:TX:a:t=10	!	!	!	!	!	!	!LO:TX:a:t=problem: Wylany tusz na partię	!
8r	.	1ryy	.	1ryy	1ryy	00r	.	1ryy	16gg\LL	.	16gg\LL	.	1ryy	1ryy
.	.	.	.	.	.	.	.	.	16dd\JJ	.	16dd\JJ	.	.	.
8G\L	.	.	.	.	.	.	.	.	4dd\	.	4dd\	.	.	.
8B\	.	.	.	.	.	.	.	.	.	.	.	.	.	.
!	!	!	!	!	!	!	!	!	!LO:TX:a:t=problem:triole pod klamrą łukową w całej części	!	!LO:TX:a:t=problem:triole pod klamrą łukową w całej części	!	!	!
8G\J	.	.	.	.	.	.	.	.	24b\LL	.	24b\LL	.	.	.
.	.	.	.	.	.	.	.	.	24cc\	.	24cc\	.	.	.
.	.	.	.	.	.	.	.	.	24dd\JJ	.	24dd\JJ	.	.	.
.	.	.	.	.	.	.	.	.	8qqdd/	.	4qqdd/	.	.	.
8r	.	.	.	.	.	.	.	.	8cc\	.	8cc\	.	.	.
8A\L	.	.	.	.	.	.	.	.	4cc\	.	4cc\	.	.	.
8F#\	5	.	.	.	.	.	.	.	.	.	.	.	.	.
8D\J	7	.	.	.	.	.	.	.	24a\LL	.	24a\LL	.	.	.
.	.	.	.	.	.	.	.	.	24b\	.	24b\	.	.	.
.	.	.	.	.	.	.	.	.	24cc\JJ	.	24cc\JJ	.	.	.
=2	=2	=2	=2	=2	=2	=2	=2	=2	=2	=2	=2	=2	=2	=2
.	.	.	.	.	.	.	.	.	8qqcc/	.	8qqcc/	.	.	.
8r	.	1ryy	.	1ryy	1ryy	.	.	1ryy	8b\	.	8b\	.	1ryy	1ryy
16G\LL	.	.	.	.	.	.	.	.	4b\	.	4b\	.	.	.
16F#\JJ	.	.	.	.	.	.	.	.	.	.	.	.	.	.
!LO:TX:a:t=problem: mixed beam	!	!	!	!	!	!	!	!	!	!	!	!	!	!
8G\L	.	.	.	.	.	.	.	.	.	.	.	.	.	.
!	!	!	!	!	!	!	!	!	!	!	!LO:TUP:b	!	!	!
8BB/J	6	.	.	.	.	.	.	.	24g\LL	.	24g/LL	.	.	.
.	.	.	.	.	.	.	.	.	24a\	.	24a/	.	.	.
.	.	.	.	.	.	.	.	.	24b\JJ	.	24b/JJ	.	.	.
8C/L	6	.	.	.	.	.	.	.	8a\L	.	8a/L	.	.	.
!	!	!	!	!	!	!	!	!	!	!	!LO:TUP:b	!	!	!
8AA/J	.	.	.	.	.	.	.	.	24cc\L	.	24cc/L	.	.	.
.	.	.	.	.	.	.	.	.	24b\	.	24b/	.	.	.
.	.	.	.	.	.	.	.	.	24a\JJ	.	24a/JJ	.	.	.
!LO:TX:a:t=problem: mixed beam	!	!	!	!	!	!	!	!	!	!	!	!	!	!
8D\L	4	.	.	.	.	.	.	.	16a\LL	.	(16a/LL	.	.	.
.	.	.	.	.	.	.	.	.	16g\	.	16g/)	.	.	.
8DD/J	3	.	.	.	.	.	.	.	16g\	.	(16g/	.	.	.
.	.	.	.	.	.	.	.	.	16f#\JJ	.	16f#/JJ)	.	.	.
=3	=3	=3	=3	=3	=3	=3	=3	=3	=3	=3	=3	=3	=3	=3
4GG/	.	2r	.	1ryy	1ryy	.	.	1ryy	8g/L	.	8g/L	.	1ryy	1ryy
.	.	.	.	.	.	.	.	.	32B/LL	.	(32B/LL	.	.	.
.	.	.	.	.	.	.	.	.	32c/	.	32c/	.	.	.
.	.	.	.	.	.	.	.	.	32d/	.	32d/	.	.	.
.	.	.	.	.	.	.	.	.	32e/JJJ	.	32e/JJJ)	.	.	.
!	!	!	!	!	!	!	!	!	!	!	!LO:LB:g=original	!	!	!
4r	.	.	.	.	.	.	.	.	16d/LL	.	16d/LL	.	.	.
.	.	.	.	.	.	.	.	.	16c/	.	16c/	.	.	.
.	.	.	.	.	.	.	.	.	16B/	.	16B/	.	.	.
.	.	.	.	.	.	.	.	.	16A/JJ	.	16A/JJ	.	.	.
!LO:TX:a:t=problem: cross staff beam	!	!	!	!	!	!	!	!	!	!	!LO:TX:a:t=problem: mixed beam	!LO:DY:a	!	!
16G\LL	.	4ryy	.	.	.	.	.	.	16G/LL	.	16G/LL	p	.	.
!	!	!	!	!	!	!	!	!	!	!LO:DY:t=p:	!	!	!	!
!	!	!	!	!	!	!	!	!	!	!LO:DY:b	!	!	!	!
16B\	.	.	.	.	.	.	.	.	16d/ 16b	p	16g\	.	.	.
16d\	.	.	.	.	.	.	.	.	16d/ 16b	.	16g\	.	.	.
16g\JJ	.	.	.	.	.	.	.	.	16d/JJ 16b	.	16g\JJ	.	.	.
!	!	!	!	!	!	!	!	!	!	!	!LO:TX:a:t=problem: brak grupy szesnastkowej, niepełna miara taktu	!	!	!
*	*	*	*	*	*	*	*	*	*tremolo	*	*	*	*	*
4ryy	.	16b\LL	.	.	.	.	.	.	16d/LL 16b	.	16g/LLyy	.	.	.
.	.	16dd\	.	.	.	.	.	.	16d/ 16b	.	16g/yy	.	.	.
.	.	16gg\	.	.	.	.	.	.	16d/ 16b	.	16g/yy	.	.	.
.	.	16bb\JJ	.	.	.	.	.	.	16d/JJ 16b	.	16g/JJyy	.	.	.
=4	=4	=4	=4	=4	=4	=4	=4	=4	=4	=4	=4	=4	=4	=4
*	*	*	*	*	*	*	*	*	*	*	*tremolo	*	*	*
4F#\	.	16bb\LL	.	1ryy	1ryy	.	.	1ryy	16d/LL 16a	.	16a/LL	.	1ryy	1ryy
.	.	16aa\	.	.	.	.	.	.	16d/ 16a	.	16a/	.	.	.
.	.	16ff#\	.	.	.	.	.	.	16d/ 16a	.	16a/	.	.	.
!	!	!	!LO:DY:a	!	!	!	!	!	!	!	!	!	!	!
.	.	16dd\JJ	f	.	.	.	.	.	16d/ 16a	.	16a/JJ	.	.	.
8r	.	16dd\LL	.	.	.	.	.	.	16d/ 16a	.	16a/LL	.	.	.
.	.	16cc\	.	.	.	.	.	.	16d/ 16a	.	16a/	.	.	.
8D\	.	16b\	.	.	.	.	.	.	16d/ 16a	.	16a/	.	.	.
.	.	16a\JJ	.	.	.	.	.	.	16d/JJ 16a	.	16a/JJ	.	.	.
!LO:TX:a:t=problem: cross staff beam	!	!	!	!	!	!	!	!	!	!	!	!	!	!
16G\LL	.	8g\	.	.	.	.	.	.	16d/LL 16b	.	16b/LL	.	.	.
16B\	.	.	.	.	.	.	.	.	16d/ 16b	.	16b/	.	.	.
16d\	.	8rb	.	.	.	.	.	.	16d/ 16b	.	16b/	.	.	.
16g\JJ	.	.	.	.	.	.	.	.	16d/ 16b	.	16b/JJ	.	.	.
4ryy	.	16b\LL	.	.	.	.	.	.	16d/ 16b	.	16b/LL	.	.	.
.	.	16dd\	.	.	.	.	.	.	16d/ 16b	.	16b/	.	.	.
.	.	16gg\	.	.	.	.	.	.	16d/ 16b	.	16b/	.	.	.
.	.	16bb\JJ	.	.	.	.	.	.	16d/JJ 16b	.	16b/JJ	.	.	.
=5	=5	=5	=5	=5	=5	=5	=5	=5	=5	=5	=5	=5	=5	=5
!LO:LB:g=original	!	!	!	!	!	!	!	!	!LO:LB:g=original	!	!	!	!	!
4F#\	.	16bb\LL	.	1ryy	1ryy	00r	.	1ryy	16d/LL 16a	.	16a/LL	.	1ryy	1ryy
.	.	16aa\	.	.	.	.	.	.	16d/ 16a	.	16a/	.	.	.
.	.	16ff#\	.	.	.	.	.	.	16d/ 16a	.	16a/	.	.	.
.	.	16dd\JJ	.	.	.	.	.	.	16d/ 16a	.	16a/JJ	.	.	.
8r	.	16dd\LL	.	.	.	.	.	.	16d/ 16a	.	16a/LL	.	.	.
.	.	16cc\	.	.	.	.	.	.	16d/ 16a	.	16a/	.	.	.
8D\	.	16b\	.	.	.	.	.	.	16d/ 16a	.	16a/	.	.	.
.	.	16a\JJ	.	.	.	.	.	.	16d/JJ 16a	.	16a/JJ	.	.	.
*	*	*	*	*	*	*	*	*	*Xtremolo	*	*Xtremolo	*	*	*
!	!	!	!	!	!	!	!	!	!LO:TX:a:t=problem: mixed beam	!	!LO:TX:a:t=problem: mixed beam	!	!	!
4G\	.	8b\	.	.	.	.	.	.	16b/LL	.	16b/LL	.	.	.
!	!	!	!	!	!	!	!	!	!	!	!	!LO:DY:t=for	!	!
!	!	!	!	!	!	!	!	!	!	!	!	!LO:DY:b	!	!
.	.	.	.	.	.	.	.	.	16g/	.	16g/	f	.	.
!	!	!	!	!	!	!	!	!	!	!LO:DY:t=forte	!	!	!	!
!	!	!	!	!	!	!	!	!	!	!LO:DY:b	!	!	!	!
.	.	8r	.	.	.	.	.	.	16gg\	f	16gg\	.	.	.
.	.	.	.	.	.	.	.	.	16gg\JJ	.	16gg\JJ	.	.	.
8r	.	4r	.	.	.	.	.	.	24gg\LL	.	24gg\LL	.	.	.
.	.	.	.	.	.	.	.	.	24aa\	.	24aa\	.	.	.
.	.	.	.	.	.	.	.	.	24gg\JJ	.	24gg\JJ	.	.	.
8B\	6	.	.	.	.	.	.	.	24ff#\LL	.	24ff#\LL	.	.	.
.	.	.	.	.	.	.	.	.	24gg\	.	24gg\	.	.	.
.	.	.	.	.	.	.	.	.	24ff#\JJ	.	24ff#\JJ	.	.	.
=6	=6	=6	=6	=6	=6	=6	=6	=6	=6	=6	=6	=6	=6	=6
!	!	!	!	!	!	!	!	!	!LO:TX:a:t=problem: mixed beam	!	!LO:TX:a:t=problem: mixed beam	!	!	!
4c\	5	1r	.	1ryy	1ryy	.	.	1ryy	16ee\LL	.	16ee\LL	.	1ryy	1ryy
.	.	.	.	.	.	.	.	.	16e/	.	16e/	.	.	.
.	.	.	.	.	.	.	.	.	16ee\	.	16.ee\	.	.	.
.	.	.	.	.	.	.	.	.	16ee\JJ	.	.	.	.	.
.	.	.	.	.	.	.	.	.	.	.	32ee\JJk	.	.	.
8r	.	.	.	.	.	.	.	.	24ee\LL	.	24ee\LL	.	.	.
!	!	!	!	!	!	!	!	!	!LO:TX:a:t=SIC:s=16ffn	!	!	!	!	!
.	.	.	.	.	.	.	.	.	24ff#\	.	24ffn\	.	.	.
.	.	.	.	.	.	.	.	.	24ee\JJ	.	24ee\JJ	.	.	.
8G#X\	6	.	.	.	.	.	.	.	24dd\LL	.	24dd\LL	.	.	.
.	.	.	.	.	.	.	.	.	24ee\	.	24ee\	.	.	.
.	.	.	.	.	.	.	.	.	24dd\JJ	.	24dd\JJ	.	.	.
!	!	!	!	!	!	!	!	!	!LO:TX:a:t=problem: mixed beam	!	!	!	!	!
4A\	5	.	.	.	.	.	.	.	16cc\LL	.	16.cc\LL	.	.	.
.	.	.	.	.	.	.	.	.	16c/	.	.	.	.	.
.	.	.	.	.	.	.	.	.	.	.	32a\K	.	.	.
.	.	.	.	.	.	.	.	.	16ccc\	.	16ccc\	.	.	.
.	.	.	.	.	.	.	.	.	16ccc\JJ	.	16ccc\JJ	.	.	.
!	!	!	!	!	!	!	!	!	!LO:TX:a:t=problem: brak oznaczenia tercji	!	!	!	!	!
*	*	*	*	*	*	*	*	*	*Xtuplet	*	*	*	*	*
8F#\L	6	.	.	.	.	.	.	.	24ccc\LL	.	24ccc\LL	.	.	.
.	.	.	.	.	.	.	.	.	24ddd\	.	24ddd\	.	.	.
.	.	.	.	.	.	.	.	.	24ccc\JJ	.	24ccc\JJ	.	.	.
!	!	!	!	!	!	!	!	!	!LO:TX:a:t=problem: brak oznaczenia tercji	!	!LO:TX:a:t=problem: brak oznaczenia trioli	!	!	!
*	*	*	*	*	*	*	*	*	*	*	*Xtuplet	*	*	*
8Gn\J	5	.	.	.	.	.	.	.	24bb\LL	.	24bb\LL	.	.	.
.	.	.	.	.	.	.	.	.	24ccc\	.	24ccc\	.	.	.
.	.	.	.	.	.	.	.	.	24bb\JJ	.	24bb\JJ	.	.	.
*	*	*	*	*	*	*	*	*	*tuplet	*	*tuplet	*	*	*
=7	=7	=7	=7	=7	=7	=7	=7	=7	=7	=7	=7	=7	=7	=7
!LO:TX:a:t=problem: mixed beam	!	!	!	!	!	!	!	!	!	!	!	!	!	!
8c\L	.	2ryy	.	1ryy	1ryy	.	.	1ryy	8aa\L	.	8aa\L	.	1ryy	1ryy
8A\	.	.	.	.	.	.	.	.	24ccc\L	.	24ccc\L	.	.	.
.	.	.	.	.	.	.	.	.	24bb\	.	24bb\	.	.	.
.	.	.	.	.	.	.	.	.	24aa\JJ	.	24aa\JJ	.	.	.
8d\	4	.	.	.	.	.	.	.	16aa\LL	.	(16aa\LL	.	.	.
.	9	.	.	.	.	.	.	.	16gg\	.	16gg\)	.	.	.
8D/J	.	.	.	.	.	.	.	.	16gg\	.	(16gg\	.	.	.
.	.	.	.	.	.	.	.	.	16ff#\JJ	.	16ff#\JJ)	.	.	.
!	!	!LO:TX:a:t=problem: mixed beam	!	!	!	!	!	!	!	!LO:DY:t=pia	!	!	!	!
!	!	!	!	!	!	!	!	!	!	!LO:DY:b	!	!	!	!
4G\	.	16gg\LL	.	.	.	.	.	.	4gg\	p	4gg\	.	.	.
.	.	16g/	.	.	.	.	.	.	.	.	.	.	.	.
.	.	16gg\	.	.	.	.	.	.	.	.	.	.	.	.
.	.	16gg\JJ	.	.	.	.	.	.	.	.	.	.	.	.
!	!	!LO:TX:a:t=problem: brak oznaczenia trioli	!	!	!	!	!	!	!	!	!	!	!	!
*	*	*Xtuplet	*	*	*	*	*	*	*	*	*	*	*	*
8r	.	24gg\LL	.	.	.	.	.	.	8r	.	8r	.	.	.
.	.	24aa\	.	.	.	.	.	.	.	.	.	.	.	.
.	.	24gg\JJ	.	.	.	.	.	.	.	.	.	.	.	.
!	!	!	!	!	!	!	!	!	!	!	!	!LO:DY:t=p:	!	!
!	!	!LO:TX:a:t=problem: brak oznaczenia trioli	!	!	!	!	!	!	!	!	!	!LO:DY:b	!	!
8B\	.	24ff#\LL	.	.	.	.	.	.	8dd\	.	8ff#\	p	.	.
.	.	24gg\	.	.	.	.	.	.	.	.	.	.	.	.
.	.	24ff#\JJ	.	.	.	.	.	.	.	.	.	.	.	.
=8	=8	=8	=8	=8	=8	=8	=8	=8	=8	=8	=8	=8	=8	=8
!	!	!	!	!	!	!	!	!	!	!	!LO:LB:g=original	!	!	!
!	!	!LO:TX:a:t=problem: mixed beam	!	!	!	!	!	!	!	!	!LO:TX:a:t=problem: nuta niewidoczna - defekt rkp	!	!	!
4c\	.	16.ee\LL	.	1ryy	1ryy	.	.	1ryy	8g/	.	4ryy	.	1ryy	1ryy
.	.	32e/K	.	.	.	.	.	.	.	.	.	.	.	.
.	.	16ee\	.	.	.	.	.	.	8r	.	.	.	.	.
.	.	16ee\JJ	.	.	.	.	.	.	.	.	.	.	.	.
!	!	!LO:TX:a:t=problem: brak oznaczenia trioli	!	!	!	!	!	!	!	!	!	!	!	!
8r	.	24ee\LL	.	.	.	.	.	.	8b\	.	8r	.	.	.
.	.	24ffn\	.	.	.	.	.	.	.	.	.	.	.	.
.	.	24ee\JJ	.	.	.	.	.	.	.	.	.	.	.	.
!	!	!LO:TX:a:t=problem: brak oznaczenia trioli	!	!	!	!	!	!	!LO:TX:a:t=problem: brak pauzy	!	!	!	!	!
8G#X\	.	24dd\LL	.	.	.	.	.	.	8ryy	.	8dd\L	.	.	.
.	.	24ee\	.	.	.	.	.	.	.	.	.	.	.	.
.	.	24dd\JJ	.	.	.	.	.	.	.	.	.	.	.	.
4A\	.	16cc\LL	.	.	.	.	.	.	4e/	.	8cc\J	.	.	.
.	.	16a\	.	.	.	.	.	.	.	.	.	.	.	.
.	.	16ccc\	.	.	.	.	.	.	.	.	8r	.	.	.
.	.	16ccc\JJ	.	.	.	.	.	.	.	.	.	.	.	.
!	!	!LO:TX:a:t=problem: brak oznaczenia trioli	!	!	!	!	!	!	!LO:TX:a:t=SIC:s=4f	!	!	!	!	!
8F#\L	.	24ccc\LL	.	.	.	.	.	.	8a#X/L	.	8cc\L	.	.	.
.	.	24aa\	.	.	.	.	.	.	.	.	.	.	.	.
.	.	24ccc\JJ	.	.	.	.	.	.	.	.	.	.	.	.
!	!	!LO:TX:a:t=problem: brak oznaczenia trioli	!	!	!	!	!	!	!	!	!	!	!	!
8Gn\J	.	24bb\LL	.	.	.	.	.	.	8g/J	.	8b\J	.	.	.
.	.	24ccc\	.	.	.	.	.	.	.	.	.	.	.	.
.	.	24bb\JJ	.	.	.	.	.	.	.	.	.	.	.	.
=9	=9	=9	=9	=9	=9	=9	=9	=9	=9	=9	=9	=9	=9	=9
!LO:LB:g=original	!	!	!	!	!	!	!	!	!LO:LB:g=original	!	!	!	!	!
*	*	*^	*	*	*	*	*	*	*	*	*	*	*	*
8c\L	.	8ff#\L	4ryy	.	1ryy	1ryy	0r	.	1ryy	8e/L	.	8a/L	.	1ryy	1ryy
!	!	!LO:TX:a:t=problem: brak oznaczenia trioli	!	!	!	!	!	!	!	!LO:TUP:b	!	!LO:TUP:b	!	!	!
8A\J	.	24ccc\L	.	.	.	.	.	.	.	24e/L	.	24cc/L	.	.	.
.	.	24bb\	.	.	.	.	.	.	.	24d/	.	24b/	.	.	.
.	.	24aa\JJ	.	.	.	.	.	.	.	24c/JJ	.	24a/JJ	.	.	.
!LO:TX:a:t=problem: mixed beam	!	!	!	!	!	!	!	!	!	!	!	!	!	!	!
8d\L	.	16aa\LL	4ryy	.	.	.	.	.	.	16c/LL	.	16a/LL	.	.	.
.	.	16gg\	.	.	.	.	.	.	.	16B/	.	16g/	.	.	.
8D/J	.	16gg\	.	.	.	.	.	.	.	16B/	.	16g/	.	.	.
.	.	16ff#\JJ	.	.	.	.	.	.	.	16A/JJ	.	16f#/JJ	.	.	.
8G\L	.	16gg\LL	4ryy	.	.	.	.	.	.	8B/L	.	16g/LL	.	.	.
.	.	16b\J 16dd	.	.	.	.	.	.	.	.	.	16d/J	.	.	.
8G\J	.	8.b\J 8.dd	.	.	.	.	.	.	.	8.B/J	.	8.d/J	.	.	.
8G\L	.	.	16ryy	.	.	.	.	.	.	.	.	.	.	.	.
.	.	16ffn/LL	16dd\LL	.	.	.	.	.	.	16d/LL	.	16fn/LL	.	.	.
8G\J	.	16ee/	16cc\	.	.	.	.	.	.	16c/	.	16e/	.	.	.
.	.	16ff#X/JJ	16a\JJ	.	.	.	.	.	.	16A/JJ	.	16f#X/JJ	.	.	.
=10	=10	=10	=10	=10	=10	=10	=10	=10	=10	=10	=10	=10	=10	=10	=10
!	!	!	!	!	!	!	!	!	!	!	!	!LO:N:vis=8	!	!	!
8G\L	.	16gg/LL	16b\LL	.	1ryy	1ryy	.	.	1ryy	8B/L	.	16g/LL	.	1ryy	1ryy
.	.	16dd/J	16b\J	.	.	.	.	.	.	.	.	16d/J	.	.	.
!	!	!	!	!	!	!	!	!	!	!	!	!LO:N:vis=16.	!	!	!
8G\J	.	8.dd/J	8.b\J	.	.	.	.	.	.	8.B/J	.	8.d/J	.	.	.
8G\L	.	.	.	.	.	.	.	.	.	.	.	.	.	.	.
.	.	16ffn/LL	16dd\LL	.	.	.	.	.	.	16d/LL	.	16fn/LL	.	.	.
8G\J	.	16ee/	16cc\	.	.	.	.	.	.	16c/	.	16e/	.	.	.
.	.	16ff#X/JJ	16a\JJ	.	.	.	.	.	.	16A/JJ	.	16f#X/JJ	.	.	.
8G\L	.	8gg/L	8b\L 8dd	.	.	.	.	.	.	8B/L	.	8g/L	.	.	.
8G\J	.	8gg/J	8b\J 8dd	.	.	.	.	.	.	8B/J	.	8g/J	.	.	.
!	!	!LO:TX:b:t=Finis	!	!	!	!	!	!	!	!	!	!LO:TX:b:t=Fin	!	!	!
4G\	.	4gg/	4b\ 4dd	.	.	.	.	.	.	4B/	.	4g;/	.	.	.
*	*	*v	*v	*	*	*	*	*	*	*	*	*	*	*	*
=11||	=11||	=11;||	=11||	=11||	=11||	=11||	=11||	=11||	=11;||	=11||	=11||	=11||	=11||	=11||
!	!	!	!	!	!	!LO:TX:a:t=problem Caudy po lewej stronie	!	!	!	!LO:DY:t=pia	!	!	!	!
!	!	!	!	!	!	!	!	!	!	!LO:DY:b	!	!	!	!
8r	.	1ryy	.	1ryy	1ryy	4.dd\	Be-	1ryy	4.b\	p	16gg\LL	.	1ryy	1ryy
.	.	.	.	.	.	.	.	.	.	.	16dd\JJ	.	.	.
8G\L	.	.	.	.	.	.	.	.	.	.	4dd\	.	.	.
8B\	.	.	.	.	.	.	.	.	.	.	.	.	.	.
*	*	*	*	*	*	*Xtuplet	*	*	*Xtuplet	*	*	*	*	*
!	!	!	!	!	!	!	!	!	!LO:TX:a:t=problem: brak oznaczenia tercji	!	!	!	!	!
8G\J	.	.	.	.	.	24b\LL	-ne-	.	24g\LL	.	24b\LL	.	.	.
.	.	.	.	.	.	24cc\	.	.	24a\	.	24cc\	.	.	.
.	.	.	.	.	.	24dd\JJ	.	.	24b\JJ	.	24dd\JJ	.	.	.
.	.	.	.	.	.	.	.	.	.	.	8qqdd/	.	.	.
8r	.	.	.	.	.	8cc\	-di-	.	8a\	.	8cc\	.	.	.
8A\L	5	.	.	.	.	4cc\	-ctus	.	4a\	.	4cc\	.	.	.
8F#\	.	.	.	.	.	.	.	.	.	.	.	.	.	.
!	!	!	!	!	!	!	!	!	!LO:TX:a:t=problem: brak oznaczenia tercji	!	!LO:TUP:b	!	!	!
8D\J	7	.	.	.	.	24a\LL	qui	.	24f#/LL	.	24a/LL	.	.	.
.	.	.	.	.	.	24b\	.	.	24g/	.	24b/	.	.	.
.	.	.	.	.	.	24cc\JJ	.	.	24a/JJ	.	24cc/JJ	.	.	.
=12	=12	=12	=12	=12	=12	=12	=12	=12	=12	=12	=12	=12	=12	=12
.	.	.	.	.	.	8qqcc/	.	.	.	.	8qqcc/	.	.	.
8r	.	1ryy	.	1ryy	1ryy	8b\	ve-	1ryy	8g/	.	8b\	.	1ryy	1ryy
16G\LL	.	.	.	.	.	4b\	-nit	.	4g/	.	4b\	.	.	.
16F#\JJ	.	.	.	.	.	.	.	.	.	.	.	.	.	.
!LO:TX:a:t=problem: mixed beam	!	!	!	!	!	!	!	!	!	!	!	!	!	!
8G\L	.	.	.	.	.	.	.	.	.	.	.	.	.	.
*	*	*	*	*	*	*	*	*	*tuplet	*	*Xtuplet	*	*	*
!	!	!	!	!	!	!LO:TX:a:t=problem: brak oznaczenia trioli	!	!	!	!	!	!	!	!
8BB/J	6	.	.	.	.	24g\LL	in	.	8d/	.	24g/LL	.	.	.
.	.	.	.	.	.	24a\	.	.	.	.	24a/	.	.	.
.	.	.	.	.	.	24b\JJ	.	.	.	.	24b/JJ	.	.	.
8C/L	6	.	.	.	.	8a\	no-	.	8c/L	.	8a/L	.	.	.
!	!	!	!	!	!	!	!	!	!LO:TUP:b	!	!	!	!	!
8AA/	.	.	.	.	.	16cc\	-mi-	.	24e/L	.	24cc/L	.	.	.
.	.	.	.	.	.	.	.	.	24d/	.	24b/	.	.	.
.	.	.	.	.	.	16b\	-ne	.	.	.	.	.	.	.
.	.	.	.	.	.	.	.	.	24c/JJ	.	24a/JJ	.	.	.
8D/	4	.	.	.	.	(16a\LL	Do-	.	(16c/LL	.	16a/LL	.	.	.
.	3	.	.	.	.	16g\JJ)	.	.	16B/)	.	16g/	.	.	.
8DD/J	.	.	.	.	.	(16g\LL	-mi-	.	(16B/	.	16g/	.	.	.
.	.	.	.	.	.	16f#\JJ)	.	.	16A/JJ)	.	16f#/JJ	.	.	.
=13	=13	=13	=13	=13	=13	=13	=13	=13	=13	=13	=13	=13	=13	=13
!	!	!	!	!	!	!	!	!	!	!	!	!LO:DY:t=for.	!	!
!	!	!	!	!	!	!	!	!	!	!	!	!LO:DY:b	!	!
4GG/	.	1ryy	.	1ryy	1ryy	4g\	-ni	1ryy	8B/L	.	8g/L	f	1ryy	1ryy
.	.	.	.	.	.	.	.	.	32B/LL	.	(32B/LL	.	.	.
.	.	.	.	.	.	.	.	.	32c/	.	32c/	.	.	.
.	.	.	.	.	.	.	.	.	32d/	.	32d/	.	.	.
.	.	.	.	.	.	.	.	.	32e/JJJ	.	32e/JJJ)	.	.	.
!	!	!	!	!	!	!	!	!	!	!	!LO:LB:g=original	!	!	!
4r	.	.	.	.	.	4r	.	.	16d/LL	.	16d/LL	.	.	.
.	.	.	.	.	.	.	.	.	16c/	.	16c/	.	.	.
.	.	.	.	.	.	.	.	.	16B/	.	16B/	.	.	.
.	.	.	.	.	.	.	.	.	16A/JJ	.	16A/JJ	.	.	.
!	!	!	!	!	!	!	!	!	!	!	!LO:TX:a:t=problem: szesnastki (poprawione ołówkiem)	!	!	!
!	!	!	!	!	!	!	!	!	!	!	!	!LO:DY:b	!	!
8r	.	.	.	.	.	4.g\	Be-	.	8G/L	.	8G/	p	.	.
8G\L	.	.	.	.	.	.	.	.	8B/	.	4gg\	.	.	.
8B\	.	.	.	.	.	.	.	.	8d/	.	.	.	.	.
8G\J	.	.	.	.	.	16b\LL	-ne-	.	8B/J	.	16bb\LL	.	.	.
.	.	.	.	.	.	16g\JJ	.	.	.	.	16gg\JJ	.	.	.
=14	=14	=14	=14	=14	=14	=14	=14	=14	=14	=14	=14	=14	=14	=14
!LO:LB:g=original	!	!	!	!	!	!	!	!	!LO:LB:g=original	!	!	!	!	!
!	!	!	!	!	!	!	!	!	!LO:TX:a:t=problem: nuta nieczytelna, defekt rkp	!	!	!	!	!
.	.	.	.	.	.	8qqg/	.	.	.	.	8qqff#/	.	.	.
8r	.	1ryy	.	1ryy	1ryy	8f#\	-di-	1ryy	8A/Lyy	.	8ee\	.	1ryy	1ryy
!LO:TX:a:t=problem: mixed beam	!	!	!	!	!	!	!	!	!	!	!	!	!	!
8C/L	.	.	.	.	.	8e\	-ctus	.	8e/	.	4ee\	.	.	.
8c\	.	.	.	.	.	8r	.	.	8e/	.	.	.	.	.
8B\J	6|	.	.	.	.	8g#X\	qui	.	8d/J	.	8gg#X\	.	.	.
4A\	.	.	.	.	.	16a\LL	ve-	.	4c/	.	16aa\LL	.	.	.
.	.	.	.	.	.	16b\	.	.	.	.	16bb\	.	.	.
.	.	.	.	.	.	16cc\	.	.	.	.	16ccc\	.	.	.
.	.	.	.	.	.	16b\JJ	.	.	.	.	16bb\JJ	.	.	.
8r	.	.	.	.	.	16a\LL	.	.	8r	.	16aa\LL	.	.	.
.	.	.	.	.	.	16b\	.	.	.	.	16bb\	.	.	.
!	!	!	!	!	!	!LO:TX:a:t=SIC:s=16fn	!	!	!	!	!	!	!	!
8c#X\	6 5	.	.	.	.	16g#\	.	.	8e/	.	16ggn\	.	.	.
.	.	.	.	.	.	16a\JJ	.	.	.	.	16aa\JJ	.	.	.
=15	=15	=15	=15	=15	=15	=15	=15	=15	=15	=15	=15	=15	=15	=15
!	!	!	!	!	!	!LO:LB:g=original	!	!	!	!	!	!	!	!
!	!	!	!	!	!	!LO:TX:a:t=problem: dźwięk niepewny, defekt rkp.	!	!	!	!	!	!	!	!
.	.	.	.	.	.	.	.	.	.	.	8qqgg/	.	.	.
8r	.	1ryy	.	1ryy	1ryy	4a\yy	-nit	1ryy	4A/	.	4ff#\	.	1ryy	1ryy
!LO:TX:a:t=problem: mixed beam	!	!	!	!	!	!	!	!	!	!	!	!	!	!
8d\L	.	.	.	.	.	.	.	.	.	.	.	.	.	.
8D/	.	.	.	.	.	4r	.	.	4r	.	8r	.	.	.
8d\J	.	.	.	.	.	.	.	.	.	.	16r	.	.	.
.	.	.	.	.	.	.	.	.	.	.	16aa\	.	.	.
8r	.	.	.	.	.	4dd\	Be-	.	8r	.	4ddd\	.	.	.
8D\L	.	.	.	.	.	.	.	.	8f#/L	.	.	.	.	.
8F#\	.	.	.	.	.	16dd\LL	-ne-	.	8a/	.	(16ddd\LL	.	.	.
.	.	.	.	.	.	16cc#X\JJ	.	.	.	.	16ccc#X\	.	.	.
8D\J	.	.	.	.	.	16b\LL	.	.	8f#/J	.	16bb\	.	.	.
.	.	.	.	.	.	16a\JJ	.	.	.	.	16aa\JJ)	.	.	.
=16	=16	=16	=16	=16	=16	=16	=16	=16	=16	=16	=16	=16	=16	=16
4E\	.	1ryy	.	1ryy	1ryy	16a\LL	-di	1ryy	4B/	.	16aa\LL	.	1ryy	1ryy
.	.	.	.	.	.	16g\	.	.	.	.	16gg\	.	.	.
.	.	.	.	.	.	16f#\	.	.	.	.	16ff#\	.	.	.
.	.	.	.	.	.	16e\JJ	.	.	.	.	16ee\JJ	.	.	.
8C#X/L	.	.	.	.	.	8.e\	ctus	.	8e/L	.	8ee\L	.	.	.
8AA/J	7 #	.	.	.	.	.	.	.	8c#X/J	.	16r	.	.	.
.	.	.	.	.	.	16g\	qui	.	.	.	16gg\Jk	.	.	.
4D\	.	.	.	.	.	16f#\LL	ve-	.	4A/	.	16ff#\LL	.	.	.
.	.	.	.	.	.	16e\	.	.	.	.	16ee\	.	.	.
.	.	.	.	.	.	(16g\	.	.	.	.	16gg\	.	.	.
.	.	.	.	.	.	16f#\JJ)	.	.	.	.	16ff#\JJ	.	.	.
8r	.	.	.	.	.	(16a\LL	.	.	8r	.	16aa\LL	.	.	.
.	.	.	.	.	.	16g\)	.	.	.	.	16gg\	.	.	.
8G\	.	.	.	.	.	16b\	.	.	8B/	.	16bb\	.	.	.
.	.	.	.	.	.	16g\JJ	.	.	.	.	16gg\JJ	.	.	.
=17	=17	=17	=17	=17	=17	=17	=17	=17	=17	=17	=17	=17	=17	=17
!LO:TX:a:t=problem: mixed beam	!	!	!	!	!	!	!	!	!	!	!	!	!	!
.	.	.	.	.	.	4qqf#/	.	.	.	.	8qqff#/	.	.	.
8A/L	#	1ryy	.	1ryy	1ryy	4e\	-nit	1ryy	4c#X/	.	4ee\	.	1ryy	1ryy
8AA\J	.	.	.	.	.	.	.	.	.	.	.	.	.	.
16A\LL	.	.	.	.	.	8r	.	.	4r	.	8r	.	.	.
16G\	.	.	.	.	.	.	.	.	.	.	.	.	.	.
16F#\	.	.	.	.	.	16r	.	.	.	.	16r	.	.	.
16E\JJ	.	.	.	.	.	16a\	in	.	.	.	16aa\	.	.	.
8D\L	.	.	.	.	.	4dd\	no	.	8r	.	4ddd\	.	.	.
8D\	.	.	.	.	.	.	.	.	8f#/L	.	.	.	.	.
8F#\	.	.	.	.	.	16dd\LL	.	.	8a/	.	16ddd\LL	.	.	.
.	.	.	.	.	.	16cc#X\	.	.	.	.	16ccc#X\	.	.	.
8D\J	.	.	.	.	.	16b\	.	.	8f#/J	.	16bb\	.	.	.
.	.	.	.	.	.	16a\JJ	.	.	.	.	16aa\JJ	.	.	.
=18	=18	=18	=18	=18	=18	=18	=18	=18	=18	=18	=18	=18	=18	=18
!	!	!	!	!	!	!	!	!	!	!	!LO:LB:g=original	!	!	!
4E\	.	1ryy	.	1ryy	1ryy	16a\LL	.	1ryy	4B/	.	16aa\LL	.	1ryy	1ryy
.	.	.	.	.	.	16g\JJ	.	.	.	.	16gg\	.	.	.
.	.	.	.	.	.	16f#\LL	mi-	.	.	.	16ff#\	.	.	.
.	.	.	.	.	.	16e\JJ	.	.	.	.	16ee\JJ	.	.	.
!	!	!	!	!	!	!	!	!	!LO:TX:a:t=problem: mixed beam	!	!	!	!	!
8C#X/L	5	.	.	.	.	4e\	-ne	.	8e/L	.	8ee\L	.	.	.
8AA/J	7 #	.	.	.	.	.	.	.	8cc#X\J	.	16r	.	.	.
.	.	.	.	.	.	.	.	.	.	.	16gg\Jk	.	.	.
!LO:TX:a:t=problem: mixed beam	!	!	!	!	!	!	!	!	!LO:TX:a:t=problem: brak oznaczenia tercji	!	!LO:TX:a:t=Dolce	!	!	!
*	*	*	*	*	*	*	*	*	*Xtuplet	*	*tuplet	*	*	*
!	!	!	!	!	!	!	!	!	!	!	!LO:TX:a:t=problem: brak oznaczenia trioli	!	!	!
8D\L	.	.	.	.	.	24f#\LL	Do-	.	24dd\LL	.	24ff#\LL	.	.	.
.	.	.	.	.	.	24g\	.	.	24ee\	.	24gg\	.	.	.
.	.	.	.	.	.	24a\JJ	.	.	24ff#\JJ	.	24aa\JJ	.	.	.
!	!	!	!	!	!	!	!	!	!LO:TX:a:t=problem: brak oznaczenia tercji	!	!LO:TX:a:t=problem: brak oznaczenia trioli	!	!	!
8G\	.	.	.	.	.	24b\LL	.	.	24gg\LL	.	24bb\LL	.	.	.
.	.	.	.	.	.	24a\	.	.	24ff#\	.	24aa\	.	.	.
.	.	.	.	.	.	24g\JJ	.	.	24ee\JJ	.	24gg\JJ	.	.	.
.	.	.	.	.	.	.	.	.	.	.	8qqff#/	.	.	.
8A\	6 4	.	.	.	.	8f#\	.	.	8dd\L	.	8ff#\L	.	.	.
8AA/J	5 #	.	.	.	.	8e\	-mi-	.	8cc#X\J	.	8eeT\J	.	.	.
=19	=19	=19	=19	=19	=19	=19	=19	=19	=19	=19	=19	=19	=19	=19
!LO:TX:a:t=problem: brak oznaczenia trioli	!	!	!	!	!	!	!	!	!	!	!	!	!	!
!	!	!LO:TX:a:t=problem: brak oznaczenia trioli	!	!	!	!	!	!	!	!	!	!	!	!
*Xtuplet	*	*	*	*	*	*	*	*	*	*	*	*	*	*
24D\LL	.	8r	.	1ryy	1ryy	4d\	-ni	1ryy	4dd\	.	4dd\	.	1ryy	1ryy
24F#\	.	.	.	.	.	.	.	.	.	.	.	.	.	.
24A\JJ	.	.	.	.	.	.	.	.	.	.	.	.	.	.
!	!	!LO:TX:a:t=problem: brak oznaczenia trioli	!	!	!	!	!	!	!	!	!	!	!	!
8r	.	24d\LL	.	.	.	.	.	.	.	.	.	.	.	.
.	.	24f#\	.	.	.	.	.	.	.	.	.	.	.	.
.	.	24a\JJ	.	.	.	.	.	.	.	.	.	.	.	.
*clefC1	*	*	*	*	*	*	*	*	*	*	*	*	*	*
!	!	!LO:TX:a:t=problem: brak oznaczenia trioli	!	!	!	!	!	!	!	!	!	!	!	!
4r	.	24dd\LL	.	.	.	4r	.	.	4r	.	4r	.	.	.
.	.	24ff#\	.	.	.	.	.	.	.	.	.	.	.	.
.	.	24aa\JJ	.	.	.	.	.	.	.	.	.	.	.	.
!	!	!LO:TX:a:t=problem: brak oznaczenia trioli	!	!	!	!	!	!	!	!	!	!	!	!
.	.	8qqgg/	.	.	.	.	.	.	.	.	.	.	.	.
.	.	24ff#\LL	.	.	.	.	.	.	.	.	.	.	.	.
.	.	24ee\	.	.	.	.	.	.	.	.	.	.	.	.
.	.	24dd\JJ	.	.	.	.	.	.	.	.	.	.	.	.
.	.	16qqdd/	.	.	.	.	.	.	.	.	.	.	.	.
8r	.	8cc#X\L	.	.	.	8r	.	.	8r	.	8r	.	.	.
16e/LL	.	8cc#\	.	.	.	8e\	qui	.	8A/L	.	8A/L	.	.	.
16A/JJ	.	.	.	.	.	.	.	.	.	.	.	.	.	.
16f#/LL	.	8dd\	.	.	.	8f#\L	ve-	.	8A/	.	8A/	.	.	.
16A/	.	.	.	.	.	.	.	.	.	.	.	.	.	.
!	!	!	!	!	!	!LO:TX:b:t=Verte	!	!	!	!	!	!	!	!
16g/	.	8ee\J	.	.	.	8g\J	.	.	8A/J	.	8A/J	.	.	.
16A/JJ	.	.	.	.	.	.	.	.	.	.	.	.	.	.
=20	=20	=20	=20	=20	=20	=20	=20	=20	=20	=20	=20	=20	=20	=20
!LO:LB:g=original	!	!	!	!	!	!LO:PB:g=original	!	!	!	!	!	!	!	!
!	!	!LO:TX:a:t=problem: brak oznaczenia trioli	!	!	!	!	!	!	!	!	!	!	!	!
.	.	16qqee/	.	.	.	8qqg/	.	.	.	.	.	.	.	.
8A/ 8f#	.	24dd\LL	.	1ryy	1ryy	4f#\	-nit	1ryy	4d/	.	4d/	.	1ryy	1ryy
.	.	24cc#X\	.	.	.	.	.	.	.	.	.	.	.	.
.	.	24dd\JJ	.	.	.	.	.	.	.	.	.	.	.	.
!LO:TX:a:t=problem: brak oznaczenia trioli	!	!	!	!	!	!	!	!	!	!	!	!	!	!
24d/LL	.	8r	.	.	.	.	.	.	.	.	.	.	.	.
24f#/	.	.	.	.	.	.	.	.	.	.	.	.	.	.
24a/JJ	.	.	.	.	.	.	.	.	.	.	.	.	.	.
!	!	!LO:TX:a:t=problem: brak oznaczenia trioli	!	!	!	!	!	!	!	!	!	!	!	!
4r	.	24dd\LL	.	.	.	4r	.	.	4r	.	4r	.	.	.
.	.	24ff#\	.	.	.	.	.	.	.	.	.	.	.	.
.	.	24aa\JJ	.	.	.	.	.	.	.	.	.	.	.	.
!	!	!LO:TX:a:t=problem: brak oznaczenia trioli	!	!	!	!	!	!	!	!	!	!	!	!
.	.	8qqgg/	.	.	.	.	.	.	.	.	.	.	.	.
.	.	24ff#\LL	.	.	.	.	.	.	.	.	.	.	.	.
.	.	24ee\	.	.	.	.	.	.	.	.	.	.	.	.
.	.	24dd\JJ	.	.	.	.	.	.	.	.	.	.	.	.
.	.	8qqdd/	.	.	.	.	.	.	.	.	.	.	.	.
8r	.	8cc#X\L	.	.	.	8r	.	.	8r	.	8r	.	.	.
16e/LL	.	8cc#\	.	.	.	8e\	qui	.	8A/L	.	8A/L	.	.	.
16A/JJ	.	.	.	.	.	.	.	.	.	.	.	.	.	.
16f#/LL	.	8dd\	.	.	.	(8f#\L	ve-	.	8A/	.	8A/	.	.	.
16A/	.	.	.	.	.	.	.	.	.	.	.	.	.	.
16g/	.	8ee\J	.	.	.	8g\J)	.	.	8A/J	.	8A/J	.	.	.
16A/JJ	.	.	.	.	.	.	.	.	.	.	.	.	.	.
=21	=21	=21	=21	=21	=21	=21	=21	=21	=21	=21	=21	=21	=21	=21
!	!	!	!	!	!	!	!	!	!LO:LB:g=original	!	!	!	!	!
*^	*	*	*	*	*	*	*	*	*	*	*	*	*	*
8f#/L	8d\L	.	8dd\L	.	1ryy	1ryy	4f#\	-nit	1ryy	8d/L	.	8d/L	.	1ryy	1ryy
8f#/J	8d\J	.	(32dd\LL	.	.	.	.	.	.	8d/J	.	8d/J	.	.	.
.	.	.	32ee\	.	.	.	.	.	.	.	.	.	.	.	.
.	.	.	32ff#\	.	.	.	.	.	.	.	.	.	.	.	.
.	.	.	32ee\JJJ)	.	.	.	.	.	.	.	.	.	.	.	.
4r	4ryy	.	32dd\LLL	.	.	.	4r	.	.	4r	.	4r	.	.	.
.	.	.	32cc#X\	.	.	.	.	.	.	.	.	.	.	.	.
.	.	.	32dd\	.	.	.	.	.	.	.	.	.	.	.	.
.	.	.	32ee\JJJ	.	.	.	.	.	.	.	.	.	.	.	.
.	.	.	32ff#\LLL	.	.	.	.	.	.	.	.	.	.	.	.
.	.	.	32ee\	.	.	.	.	.	.	.	.	.	.	.	.
.	.	.	32ff#\	.	.	.	.	.	.	.	.	.	.	.	.
.	.	.	32gg\JJJ	.	.	.	.	.	.	.	.	.	.	.	.
8d\ 8f#	8ryy	.	8aa\	.	.	.	4r	.	.	8d/L	.	8f#/L	.	.	.
8f#/	8d\	.	32dd\LLL	.	.	.	.	.	.	8d/J	.	8f#/J	.	.	.
.	.	.	32ee\	.	.	.	.	.	.	.	.	.	.	.	.
.	.	.	32ff#\	.	.	.	.	.	.	.	.	.	.	.	.
.	.	.	32ee\JJJ	.	.	.	.	.	.	.	.	.	.	.	.
4r	4ryy	.	32dd\LLL	.	.	.	8r	.	.	4r	.	4r	.	.	.
.	.	.	32cc#X\	.	.	.	.	.	.	.	.	.	.	.	.
.	.	.	32dd\	.	.	.	.	.	.	.	.	.	.	.	.
.	.	.	32ee\JJJ	.	.	.	.	.	.	.	.	.	.	.	.
.	.	.	32ff#\LLL	.	.	.	16r	.	.	.	.	.	.	.	.
.	.	.	32ee\	.	.	.	.	.	.	.	.	.	.	.	.
.	.	.	32ff#\	.	.	.	16a\	in	.	.	.	.	.	.	.
.	.	.	32gg\JJJ	.	.	.	.	.	.	.	.	.	.	.	.
*v	*v	*	*	*	*	*	*	*	*	*	*	*	*	*	*
=22	=22	=22	=22	=22	=22	=22	=22	=22	=22	=22	=22	=22	=22	=22
*clefF4	*	*	*	*	*	*	*	*	*tremolo	*	*	*	*	*
*tremolo	*	*	*	*	*	*	*	*	*	*	*	*	*	*
.	.	.	.	.	.	.	.	.	.	.	8qqaa/	.	.	.
!	!	!	!	!	!	!	!	!	!	!	!LO:TX:b:t=Dolce	!	!	!
16F#\LL	6	8aa\	.	1ryy	1ryy	4dd\	no-	1ryy	16dd\LL	.	4ddd\	.	1ryy	1ryy
16F#\	.	.	.	.	.	.	.	.	16dd\	.	.	.	.	.
16F#\	.	8r	.	.	.	.	.	.	16dd\	.	.	.	.	.
16F#\JJ	.	.	.	.	.	.	.	.	16dd\JJ	.	.	.	.	.
16F#\LL	.	4r	.	.	.	16dd\LL	.	.	16dd\LL	.	(16ddd\LL	.	.	.
16F#\	.	.	.	.	.	16cc#X\	.	.	16dd\	.	16ccc#X\	.	.	.
16F#\	.	.	.	.	.	16b\	.	.	16dd\	.	16bb\	.	.	.
16F#\JJ	.	.	.	.	.	16a#X\JJ	.	.	16dd\	.	16aa#X\JJ)	.	.	.
16G\LL	5	2r	.	.	.	16b\LL	.	.	16dd\	.	(16bb\LL	.	.	.
16G\	.	.	.	.	.	16a#\	.	.	16dd\	.	16aa#\	.	.	.
16G\	.	.	.	.	.	16b\	.	.	16dd\	.	16bb\	.	.	.
16G\JJ	.	.	.	.	.	16a#\JJ	.	.	16dd\JJ	.	16aa#\JJ)	.	.	.
16D#X\LL	6	.	.	.	.	16b\LL	.	.	16b\LL	.	16bb\LL	.	.	.
16D#\	.	.	.	.	.	16an\	.	.	16b\	.	16aan\	.	.	.
16D#\	.	.	.	.	.	16g\	.	.	16b\	.	16gg\	.	.	.
16D#\JJ	.	.	.	.	.	16f#\JJ	.	.	16b\JJ	.	16ff#\JJ	.	.	.
*	*	*	*	*	*	*	*	*	*Xtremolo	*	*	*	*	*
=23	=23	=23	=23	=23	=23	=23	=23	=23	=23	=23	=23	=23	=23	=23
16E\LL	.	1ryy	.	1ryy	1ryy	8.g\	.	1ryy	8.ee\L	.	(8.gg\L	.	1ryy	1ryy
16E\	.	.	.	.	.	.	.	.	.	.	.	.	.	.
16E\	.	.	.	.	.	.	.	.	.	.	.	.	.	.
16E\JJ	.	.	.	.	.	16b\	-mi-	.	32ff#\LL	.	32aa\LL	.	.	.
.	.	.	.	.	.	.	.	.	32gg\JJJ	.	32bb\JJJ)	.	.	.
16C#X\LL	6 5	.	.	.	.	8a\L	-ne	.	8ff#\L	.	8aa\L	.	.	.
16C#\	.	.	.	.	.	.	.	.	.	.	.	.	.	.
16C#\	.	.	.	.	.	8g\J	.	.	8ee\J	.	8gg\J	.	.	.
16C#\JJ	.	.	.	.	.	.	.	.	.	.	.	.	.	.
*Xtremolo	*	*	*	*	*	*	*	*	*	*	*	*	*	*
!LO:TX:a:t=problem: mixed beam	!	!	!	!	!	!	!	!	!LO:TX:a:t=problem: brak oznaczenia tercji	!	!LO:LB:g=original	!	!	!
8D\L	.	.	.	.	.	24f#\LL	Do-	.	24dd\LL	.	24ff#\LL	.	.	.
.	.	.	.	.	.	24g\	.	.	24ee\	.	24gg\	.	.	.
.	.	.	.	.	.	24a\JJ	.	.	24ff#\JJ	.	24aa\JJ	.	.	.
!	!	!	!	!	!	!	!	!	!LO:TX:a:t=problem: brak oznaczenia tercji	!	!	!	!	!
8G\	.	.	.	.	.	24b\LL	.	.	24gg\LL	.	24bb\LL	.	.	.
.	.	.	.	.	.	24a\	.	.	24ff#\	.	24aa\	.	.	.
.	.	.	.	.	.	24g\JJ	.	.	24ee\JJ	.	24gg\JJ	.	.	.
8A\	.	.	.	.	.	8f#\	.	.	8dd\L	.	8ff#\L	.	.	.
8AA/J	.	.	.	.	.	8e\	-mi-	.	8cc#X\J	.	8ee\J	.	.	.
=24	=24	=24	=24	=24	=24	=24	=24	=24	=24	=24	=24	=24	=24	=24
!LO:LB:g=original	!	!	!	!	!	!	!	!	!	!LO:DY:t=for	!	!LO:DY:t=for.	!	!
!	!	!	!	!	!	!	!	!	!	!LO:DY:b	!	!LO:DY:b	!	!
8D\L	.	1ryy	.	1ryy	1ryy	4d\	-ni	1ryy	16dd\LL	f	16dd\LL	f	1ryy	1ryy
.	.	.	.	.	.	.	.	.	16aa\JJ	.	16aa\JJ	.	.	.
8D\	.	.	.	.	.	.	.	.	4aa\	.	4aa\	.	.	.
8F#\	6	.	.	.	.	4r	.	.	.	.	.	.	.	.
!	!	!	!	!	!	!	!	!	!LO:TX:a:t=problem: brak oznaczenia tercji	!	!	!	!	!
8D\J	.	.	.	.	.	.	.	.	24ff#\LL	.	24ff#\LL	.	.	.
.	.	.	.	.	.	.	.	.	24gg\	.	24gg\	.	.	.
.	.	.	.	.	.	.	.	.	24aa\JJ	.	24aa\JJ	.	.	.
.	.	.	.	.	.	.	.	.	8qqaa/	.	8qqaa/	.	.	.
8r	.	.	.	.	.	2r	.	.	8gg\	.	8gg\	.	.	.
8E\L	.	.	.	.	.	.	.	.	4gg\	.	4gg\	.	.	.
8C#X\	5	.	.	.	.	.	.	.	.	.	.	.	.	.
.	7 #	.	.	.	.	.	.	.	.	.	.	.	.	.
!	!	!	!	!	!	!	!	!	!LO:TX:a:t=problem: brak oznaczenia tercji	!	!	!	!	!
8AA\J	.	.	.	.	.	.	.	.	24ee\LL	.	24ee\LL	.	.	.
.	.	.	.	.	.	.	.	.	24ff#\	.	24ff#\	.	.	.
.	.	.	.	.	.	.	.	.	24gg\JJ	.	24gg\JJ	.	.	.
=25	=25	=25	=25	=25	=25	=25	=25	=25	=25	=25	=25	=25	=25	=25
.	.	.	.	.	.	.	.	.	8qqgg/	.	8qqgg/	.	.	.
!	!	!	!	!	!	!LO:TX:a:t=8.	!	!	!	!	!	!	!	!
8r	.	1ryy	.	1ryy	1ryy	00r	.	1ryy	8ff#\	.	8ff#\	.	1ryy	1ryy
16D\LL	.	.	.	.	.	.	.	.	4ff#\	.	4ff#\	.	.	.
16C#X\JJ	.	.	.	.	.	.	.	.	.	.	.	.	.	.
8D\L	.	.	.	.	.	.	.	.	.	.	.	.	.	.
!	!	!	!	!	!	!	!	!	!LO:TX:a:t=problem: brak oznaczenia tercji	!	!	!	!	!
8F#\J	6	.	.	.	.	.	.	.	24dd\LL	.	24dd\LL	.	.	.
.	.	.	.	.	.	.	.	.	24ee\	.	24ee\	.	.	.
.	.	.	.	.	.	.	.	.	24ff#\JJ	.	24ff#\JJ	.	.	.
!LO:TX:a:t=problem: mixed beam	!	!	!	!	!	!	!	!	!	!	!	!	!	!
8G\L	6	.	.	.	.	.	.	.	8ee\L	.	8ee\L	.	.	.
*	*	*	*	*	*	*	*	*	*tuplet	*	*	*	*	*
8E\	.	.	.	.	.	.	.	.	24gg\L	.	24gg\L	.	.	.
.	.	.	.	.	.	.	.	.	24ff#\	.	24ff#\	.	.	.
.	.	.	.	.	.	.	.	.	24ee\JJ	.	24ee\JJ	.	.	.
8A\	4	.	.	.	.	.	.	.	16ee\LL	.	16ee\LL	.	.	.
.	.	.	.	.	.	.	.	.	16dd\	.	16dd\	.	.	.
8AA/J	#	.	.	.	.	.	.	.	16dd\	.	16dd\	.	.	.
.	.	.	.	.	.	.	.	.	16cc#X\JJ	.	16cc#X\JJ	.	.	.
=26	=26	=26	=26	=26	=26	=26	=26	=26	=26	=26	=26	=26	=26	=26
!	!	!	!	!	!	!	!	!	!LO:LB:g=original	!	!	!	!	!
!	!	!	!	!	!	!	!	!	!LO:TX:a:t=problem: nuta nieczytelna, defekt rkp	!	!LO:TX:a:t=problem: mixed beam	!	!	!
4D\	.	2r	.	1ryy	1ryy	.	.	1ryy	8dd/Lyy	.	8dd\L	.	1ryy	1ryy
.	.	.	.	.	.	.	.	.	32d/LL	.	32f#/LL	.	.	.
.	.	.	.	.	.	.	.	.	32e/	.	32g/	.	.	.
.	.	.	.	.	.	.	.	.	32f#/	.	32a/	.	.	.
.	.	.	.	.	.	.	.	.	32g/JJJ	.	32b/JJJ	.	.	.
4r	.	.	.	.	.	.	.	.	16f#/LL	.	16a/LL	.	.	.
.	.	.	.	.	.	.	.	.	16e/	.	16g/	.	.	.
.	.	.	.	.	.	.	.	.	16d/	.	16f#/	.	.	.
.	.	.	.	.	.	.	.	.	16c#X/JJ	.	16e/JJ	.	.	.
!LO:TX:a:t=problem: brak oznaczenia trioli	!	!	!	!	!	!	!	!	!	!	!	!	!	!
24D\LL	.	8r	.	.	.	.	.	.	4d/	.	4d/	.	.	.
24F#\	.	.	.	.	.	.	.	.	.	.	.	.	.	.
24A\JJ	.	.	.	.	.	.	.	.	.	.	.	.	.	.
!	!	!LO:TX:a:t=problem: brak oznaczenia trioli	!	!	!	!	!	!	!	!	!	!	!	!
8r	.	24d\LL	.	.	.	.	.	.	.	.	.	.	.	.
.	.	24f#\	.	.	.	.	.	.	.	.	.	.	.	.
.	.	24a\JJ	.	.	.	.	.	.	.	.	.	.	.	.
!	!	!LO:TX:a:t=P:problem= brak oznaczenia trioli	!	!	!	!	!	!	!	!	!	!	!	!
4r	.	24dd\LL	.	.	.	.	.	.	4r	.	4r	.	.	.
.	.	24ff#\	.	.	.	.	.	.	.	.	.	.	.	.
.	.	24aa\JJ	.	.	.	.	.	.	.	.	.	.	.	.
!	!	!LO:TX:a:t=P:problem= brak oznaczenia trioli	!	!	!	!	!	!	!	!	!	!	!	!
.	.	8qqgg/	.	.	.	.	.	.	.	.	.	.	.	.
.	.	24ff#\LL	.	.	.	.	.	.	.	.	.	.	.	.
.	.	24ee\	.	.	.	.	.	.	.	.	.	.	.	.
.	.	24dd\JJ	.	.	.	.	.	.	.	.	.	.	.	.
=27	=27	=27	=27	=27	=27	=27	=27	=27	=27	=27	=27	=27	=27	=27
!LO:TX:a:t=problem: mixed beam	!	!	!	!	!	!	!	!	!	!	!	!	!	!
.	.	8qqdd/	.	.	.	.	.	.	.	.	.	.	.	.
8A\L	.	4cc#X\	.	1ryy	1ryy	.	.	1ryy	8r	.	8r	.	1ryy	1ryy
!	!	!	!	!	!	!	!	!	!	!	!LO:TX:a:t=problem: brak oznaczenia trioli	!	!	!
*	*	*	*	*	*	*	*	*	*	*	*Xtuplet	*	*	*
8AA/J	.	.	.	.	.	.	.	.	8a\	.	24a\LL	.	.	.
.	.	.	.	.	.	.	.	.	.	.	24cc#X\	.	.	.
.	.	.	.	.	.	.	.	.	.	.	24ee\JJ	.	.	.
*	*	*	*	*	*	*	*	*	*	*	*tuplet	*	*	*
8r	.	4r	.	.	.	.	.	.	24ee\LL	.	24gg\LL	.	.	.
.	.	.	.	.	.	.	.	.	24dd\	.	24ff#\	.	.	.
.	.	.	.	.	.	.	.	.	24cc#X\JJ	.	24ee\JJ	.	.	.
!	!	!	!	!	!	!	!	!	!	!	!LO:TX:a:t=problem: brak oznaczenia trioli	!	!	!
*	*	*	*	*	*	*	*	*	*	*	*Xtuplet	*	*	*
8AA/	.	.	.	.	.	.	.	.	24gg\LL	.	24bb\LL	.	.	.
.	.	.	.	.	.	.	.	.	24ff#\	.	24aa\	.	.	.
.	.	.	.	.	.	.	.	.	24ee\JJ	.	24gg\JJ	.	.	.
!LO:TX:a:t=problem: brak oznaczenia trioli	!	!	!	!	!	!	!	!	!	!	!	!	!	!
.	.	.	.	.	.	.	.	.	.	.	8qqgg/	.	.	.
24D\LL	.	8r	.	.	.	.	.	.	4dd\	.	4ff#\	.	.	.
24F#\	.	.	.	.	.	.	.	.	.	.	.	.	.	.
24A\JJ	.	.	.	.	.	.	.	.	.	.	.	.	.	.
!	!	!LO:TX:a:t=problem: brak oznaczenia trioli	!	!	!	!	!	!	!	!	!	!	!	!
8r	.	24d\LL	.	.	.	.	.	.	.	.	.	.	.	.
.	.	24f#\	.	.	.	.	.	.	.	.	.	.	.	.
.	.	24a\JJ	.	.	.	.	.	.	.	.	.	.	.	.
!	!	!LO:TX:a:t=P:problem= brak oznaczenia trioli	!	!	!	!	!	!	!	!	!	!	!	!
4r	.	24dd\LL	.	.	.	.	.	.	4r	.	4r	.	.	.
.	.	24ff#\	.	.	.	.	.	.	.	.	.	.	.	.
.	.	24aa\JJ	.	.	.	.	.	.	.	.	.	.	.	.
!	!	!LO:TX:a:t=P:problem= brak oznaczenia trioli	!	!	!	!	!	!	!	!	!	!	!	!
.	.	8qqgg/	.	.	.	.	.	.	.	.	.	.	.	.
.	.	24ff#\LL	.	.	.	.	.	.	.	.	.	.	.	.
.	.	24ee\	.	.	.	.	.	.	.	.	.	.	.	.
.	.	24dd\JJ	.	.	.	.	.	.	.	.	.	.	.	.
=28	=28	=28	=28	=28	=28	=28	=28	=28	=28	=28	=28	=28	=28	=28
!LO:TX:a:t=problem: mixed beam	!	!	!	!	!	!	!	!	!	!	!LO:LB:g=original	!	!	!
*	*	*	*	*	*	*	*	*	*	*	*tuplet	*	*	*
.	.	8qqdd/	.	.	.	.	.	.	.	.	.	.	.	.
*^	*	*	*	*	*	*	*	*	*	*	*	*	*	*
8A\L	4ryy	.	4cc#X\	.	1ryy	1ryy	.	.	1ryy	8r	.	8r	.	1ryy	1ryy
8AA/J	.	.	.	.	.	.	.	.	.	8a\	.	24a\LL	.	.	.
.	.	.	.	.	.	.	.	.	.	.	.	24cc#X\	.	.	.
.	.	.	.	.	.	.	.	.	.	.	.	24ee\JJ	.	.	.
8r	4ryy	.	4r	.	.	.	.	.	.	24ee\LL	.	24gg\LL	.	.	.
.	.	.	.	.	.	.	.	.	.	24dd\	.	24ff#\	.	.	.
.	.	.	.	.	.	.	.	.	.	24cc#X\JJ	.	24ee\JJ	.	.	.
8AA/	.	.	.	.	.	.	.	.	.	24gg\LL	.	24bb\LL	.	.	.
.	.	.	.	.	.	.	.	.	.	24ff#\	.	24aa\	.	.	.
.	.	.	.	.	.	.	.	.	.	24ee\JJ	.	24gg\JJ	.	.	.
!	!	!	!	!	!	!	!	!	!	!	!	!	!LO:DY:t=p:	!	!
!	!	!	!LO:TX:a:t=problem: brak oznaczenia trioli	!	!	!	!	!	!	!	!	!	!LO:DY:b	!	!
8D\	4ryy	.	24ff#\LL	.	.	.	.	.	.	8dd\	.	8ff#\	p	.	.
.	.	.	24aa\	.	.	.	.	.	.	.	.	.	.	.	.
.	.	.	24gg\JJ	.	.	.	.	.	.	.	.	.	.	.	.
!LO:LB:g=original	!	!	!LO:TX:a:t=P:problem= brak oznaczenia trioli	!	!	!	!	!	!	!	!	!	!	!	!
8r	.	.	24ff#\LL	.	.	.	.	.	.	8r	.	8r	.	.	.
.	.	.	24ee\	.	.	.	.	.	.	.	.	.	.	.	.
.	.	.	24dd\JJ	.	.	.	.	.	.	.	.	.	.	.	.
!	!	!	!LO:TX:a:t=P:problem= brak oznaczenia trioli	!	!	!	!	!	!	!	!	!	!	!	!
8A/	8G\	.	24cc#X\LL	.	.	.	.	.	.	8cc#X\	.	8ee\	.	.	.
.	.	.	24ee\	.	.	.	.	.	.	.	.	.	.	.	.
.	.	.	24dd\JJ	.	.	.	.	.	.	.	.	.	.	.	.
!	!	!	!LO:TX:a:t=P:problem= brak oznaczenia trioli	!	!	!	!	!	!	!	!	!	!	!	!
8r	8ryy	.	24cc#\LL	.	.	.	.	.	.	8r	.	8r	.	.	.
.	.	.	24b\	.	.	.	.	.	.	.	.	.	.	.	.
.	.	.	24a\JJ	.	.	.	.	.	.	.	.	.	.	.	.
=29	=29	=29	=29	=29	=29	=29	=29	=29	=29	=29	=29	=29	=29	=29	=29
!	!	!	!LO:TX:a:t=problem: brak oznaczenia trioli	!	!	!	!	!	!	!	!	!	!	!	!
8A/	8F#\	.	24dd\LL	.	1ryy	1ryy	00r	.	1ryy	8dd\	.	8ff#\	.	1ryy	1ryy
.	.	.	24a\	.	.	.	.	.	.	.	.	.	.	.	.
.	.	.	24g\JJ	.	.	.	.	.	.	.	.	.	.	.	.
!	!	!	!LO:TX:a:t=P:problem= brak oznaczenia trioli	!	!	!	!	!	!	!	!	!	!	!	!
8r	8ryy	.	24f#/LL	.	.	.	.	.	.	8r	.	8r	.	.	.
.	.	.	24e/	.	.	.	.	.	.	.	.	.	.	.	.
.	.	.	24d/JJ	.	.	.	.	.	.	.	.	.	.	.	.
!	!	!	!LO:TX:a:t=P:problem= brak oznaczenia trioli	!	!	!	!	!	!	!	!	!	!	!	!
8A/	8G\	.	24c#X/LL	.	.	.	.	.	.	8cc#X\	.	8ee\	.	.	.
.	.	.	24e/	.	.	.	.	.	.	.	.	.	.	.	.
.	.	.	24d/JJ	.	.	.	.	.	.	.	.	.	.	.	.
!	!	!	!LO:TX:a:t=P:problem= brak oznaczenia trioli	!	!	!	!	!	!	!	!	!	!	!	!
8r	8ryy	.	24c#/LL	.	.	.	.	.	.	8r	.	8r	.	.	.
.	.	.	24B/	.	.	.	.	.	.	.	.	.	.	.	.
.	.	.	24A/JJ	.	.	.	.	.	.	.	.	.	.	.	.
4A/	4F#\	.	(32d/LLL	.	.	.	.	.	.	4dd\	.	8ff#\	.	.	.
.	.	.	32A/	.	.	.	.	.	.	.	.	.	.	.	.
.	.	.	32B/	.	.	.	.	.	.	.	.	.	.	.	.
.	.	.	32c#/	.	.	.	.	.	.	.	.	.	.	.	.
!	!	!	!	!	!	!	!	!	!	!	!	!LO:TX:a:t=problem: brak pauzy	!	!	!
.	.	.	32d/	.	.	.	.	.	.	.	.	8ryy	.	.	.
.	.	.	32e/	.	.	.	.	.	.	.	.	.	.	.	.
.	.	.	32f#/	.	.	.	.	.	.	.	.	.	.	.	.
.	.	.	32g/JJJ)	.	.	.	.	.	.	.	.	.	.	.	.
4r	4ryy	.	32a/LLL	.	.	.	.	.	.	4r	.	4r	.	.	.
.	.	.	32d/	.	.	.	.	.	.	.	.	.	.	.	.
.	.	.	32e/	.	.	.	.	.	.	.	.	.	.	.	.
.	.	.	32f#/	.	.	.	.	.	.	.	.	.	.	.	.
.	.	.	32g/	.	.	.	.	.	.	.	.	.	.	.	.
.	.	.	32a/	.	.	.	.	.	.	.	.	.	.	.	.
.	.	.	32b/	.	.	.	.	.	.	.	.	.	.	.	.
!	!	!	!LO:TX:a:t=SIC:s=32cc+	!	!	!	!	!	!	!	!	!	!	!	!
.	.	.	32cc/JJJ	.	.	.	.	.	.	.	.	.	.	.	.
*v	*v	*	*	*	*	*	*	*	*	*	*	*	*	*	*
=30	=30	=30	=30	=30	=30	=30	=30	=30	=30	=30	=30	=30	=30	=30
!	!	!	!	!	!	!	!	!	!	!LO:DY:t=for	!LO:TX:a:t=problem: mixed beam	!	!	!
!	!	!	!	!	!	!	!	!	!	!LO:DY:b	!	!	!	!
*tremolo	*	*	*	*	*	*	*	*	*	*	*	*	*	*
16F#\LL	6	4dd\	.	1ryy	1ryy	.	.	1ryy	16a\LL	f	16a\LL	.	1ryy	1ryy
16F#\	.	.	.	.	.	.	.	.	16aa\JJ	.	16aa/JJ	.	.	.
!	!	!	!	!	!	!	!	!	!	!	!	!LO:DY:t=for.	!	!
!	!	!	!	!	!	!	!	!	!	!	!	!LO:DY:b	!	!
16F#\	.	.	.	.	.	.	.	.	4aa\	.	4aa\	f	.	.
16F#\JJ	.	.	.	.	.	.	.	.	.	.	.	.	.	.
16F#\LL	.	4r	.	.	.	.	.	.	.	.	.	.	.	.
16F#\	.	.	.	.	.	.	.	.	.	.	.	.	.	.
16F#\	.	.	.	.	.	.	.	.	32gg\LLL	.	(32gg\LLL	.	.	.
.	.	.	.	.	.	.	.	.	32ff#\	.	32ff#\	.	.	.
16F#\JJ	.	.	.	.	.	.	.	.	32ee\	.	32ee\	.	.	.
.	.	.	.	.	.	.	.	.	32dd\JJJ	.	32dd\JJJ)	.	.	.
!	!	!	!	!	!	!	!	!	!LO:TX:a:t=SIC:s=16cc+	!	!	!	!	!
16G\LL	.	2r	.	.	.	.	.	.	16cc\LL	.	16cc#X\LL	.	.	.
16G\	.	.	.	.	.	.	.	.	16b\J	.	16b\J	.	.	.
!	!	!	!	!	!	!	!	!	!	!	!LO:TX:a:t=problem: brak kropki	!	!	!
16G\	.	.	.	.	.	.	.	.	8.b\J	.	8.b\J	.	.	.
16G\JJ	.	.	.	.	.	.	.	.	.	.	.	.	.	.
16G\LL	.	.	.	.	.	.	.	.	.	.	.	.	.	.
!	!	!	!	!	!	!	!	!	!LO:LB:g=original	!	!	!	!	!
!	!	!	!	!	!	!	!	!	!LO:TX:a:t=problem: nuta nieczytelna, defekt rkp	!	!LO:TX:a:t=problem:błędne wyświetlanie oznaczenia trioli	!	!	!
16G\	.	.	.	.	.	.	.	.	16bb\LLyy	.	16bb\LL	.	.	.
16G\	.	.	.	.	.	.	.	.	16aa\	.	16aa\	.	.	.
16G\JJ	.	.	.	.	.	.	.	.	16gg\JJ	.	16gg\JJ	.	.	.
=31	=31	=31	=31	=31	=31	=31	=31	=31	=31	=31	=31	=31	=31	=31
*	*	*	*	*	*	*	*	*	*Xtuplet	*	*	*	*	*
*	*	*^	*	*	*	*	*	*	*	*	*	*	*	*
!	!	!	!	!	!	!	!	!	!	!LO:TX:a:t=problem: brak oznaczenia tercji	!	!	!	!	!
16A\LL	4	2r	2ryy	.	1ryy	1ryy	.	.	1ryy	24ff#\LL	.	24ff#\LL	.	1ryy	1ryy
.	.	.	.	.	.	.	.	.	.	24aa\	.	24aa\	.	.	.
16A\	.	.	.	.	.	.	.	.	.	.	.	.	.	.	.
.	.	.	.	.	.	.	.	.	.	24gg\JJ	.	24gg\JJ	.	.	.
!	!	!	!	!	!	!	!	!	!	!LO:TX:a:t=problem: brak oznaczenia tercji	!	!	!	!	!
16A\	.	.	.	.	.	.	.	.	.	24ff#\LL	.	24ff#\LL	.	.	.
.	.	.	.	.	.	.	.	.	.	24ee\	.	24ee\	.	.	.
16A\JJ	.	.	.	.	.	.	.	.	.	.	.	.	.	.	.
.	.	.	.	.	.	.	.	.	.	24dd\JJ	.	24dd\JJ	.	.	.
16AA/LL	#	.	.	.	.	.	.	.	.	4eeT\	.	4eeT\	.	.	.
16AA/	.	.	.	.	.	.	.	.	.	.	.	.	.	.	.
16AA/	.	.	.	.	.	.	.	.	.	.	.	.	.	.	.
16AA/JJ	.	.	.	.	.	.	.	.	.	.	.	.	.	.	.
*Xtremolo	*	*	*	*	*	*	*	*	*	*	*	*	*	*	*
!	!	!	!	!	!	!	!	!	!	!LO:TX:a:t=problem: mixed beam	!	!	!	!	!
8D\L	.	16dd/LL	16ryy	.	.	.	.	.	.	16dd\LL	.	16dd\LL	.	.	.
!	!	!	!	!	!	!	!	!	!	!	!LO:DY:t=pia	!	!	!	!
!	!	!	!	!	!	!	!	!	!	!	!LO:DY:b	!	!	!	!
.	.	16a/J	16f#\	.	.	.	.	.	.	16f#/J	p	16a\J	.	.	.
8D\	.	8.a/J	8.f#\	.	.	.	.	.	.	8.f#/J	.	8.a\J	.	.	.
8D\	.	.	.	.	.	.	.	.	.	.	.	.	.	.	.
!	!	!LO:TX:a:t=Dur	!	!	!	!	!	!	!	!	!	!	!	!	!
.	.	16ccn/LL	16a\LL	.	.	.	.	.	.	16a/LL	.	16ccn\LL	.	.	.
8D\J	.	16b/	16g\	.	.	.	.	.	.	16g/	.	16b\	.	.	.
.	.	16cc#X/JJ	16e\JJ	.	.	.	.	.	.	16f#/JJ	.	16cc#X\JJ	.	.	.
=32	=32	=32	=32	=32	=32	=32	=32	=32	=32	=32	=32	=32	=32	=32	=32
8D\L	.	16dd/LL	16ryy	.	1ryy	1ryy	.	.	1ryy	8f#/L	.	16dd\LL	.	1ryy	1ryy
.	.	16a/J	16f#\	.	.	.	.	.	.	.	.	16a\J	.	.	.
8D\	.	8.a/J	8.f#\	.	.	.	.	.	.	8.f#/J	.	8.a\J	.	.	.
8D\	.	.	.	.	.	.	.	.	.	.	.	.	.	.	.
.	.	16ccn/LL	16ryy	.	.	.	.	.	.	16a/LL	.	16ccn\LL	.	.	.
8D\J	.	16b/	8ryy	.	.	.	.	.	.	16g/	.	16b\	.	.	.
.	.	16cc#X/JJ	.	.	.	.	.	.	.	16f#/JJ	.	16cc#X\JJ	.	.	.
!	!	!	!	!	!	!	!	!	!	!	!	!LO:LB:g=original	!	!	!
8D\L	.	8dd/L	2ryy	.	.	.	.	.	.	8f#/L	.	8dd\L	.	.	.
8D\	.	8dd/J	.	.	.	.	.	.	.	8f#/J	.	8dd\J	.	.	.
8D\	.	4dd/	.	.	.	.	.	.	.	4f#/	.	4dd\	.	.	.
!	!	!LO:TX:a:t=problem: nuta nieczytelna, defekt rkp	!	!	!	!	!	!	!	!	!	!	!	!	!
8D\Jyy	.	.	.	.	.	.	.	.	.	.	.	.	.	.	.
*	*	*v	*v	*	*	*	*	*	*	*	*	*	*	*	*
=33	=33	=33	=33	=33	=33	=33	=33	=33	=33	=33	=33	=33	=33	=33
!LO:PB:g=original	!	!	!LO:DY:t=piano	!	!	!	!	!	!	!	!	!LO:DY:t=for.	!	!
!	!	!	!LO:DY:b	!	!	!	!	!	!	!	!	!LO:DY:b	!	!
8r	.	1ryy	p	1ryy	1ryy	4dd\	Be-	1ryy	8r	.	4ddd\	f	1ryy	1ryy
8D\L	.	.	.	.	.	.	.	.	8f#/L	.	.	.	.	.
8F#\	.	.	.	.	.	16a\LL	-ne-	.	8a/	.	16aa\LL	.	.	.
.	.	.	.	.	.	16f#\JJ	.	.	.	.	16ff#\JJ	.	.	.
.	.	.	.	.	.	.	.	.	.	.	16qqff#/	.	.	.
8D\J	.	.	.	.	.	8e\	-di-	.	8f#/J	.	8ee\	.	.	.
!	!	!	!	!	!	!LO:TX:a:t=problem: ćwierćnuta	!	!	!	!	!	!	!	!
!	!	!	!	!	!	!LO:LB:g=original	!	!	!	!	!	!	!	!
8r	.	.	.	.	.	4.e\	-ctus	.	8r	.	4ee\	.	.	.
!	!	!	!	!	!	!	!	!	!LO:TX:a:t=problem: mixed beam	!	!	!	!	!
8G\L	6	.	.	.	.	.	.	.	8B/L	.	.	.	.	.
8G\	.	.	.	.	.	.	.	.	8B/	.	16gg\LL	.	.	.
.	.	.	.	.	.	.	.	.	.	.	16bb\JJ	.	.	.
!	!	!	!	!	!	!	!	!	!	!	!LO:TX:a:t=problem: niepełny takt	!	!	!
8G\J	5	.	.	.	.	16g\LL	qui	.	8gg\J	.	8ryy	.	.	.
.	.	.	.	.	.	16b\JJ	.	.	.	.	.	.	.	.
=34	=34	=34	=34	=34	=34	=34	=34	=34	=34	=34	=34	=34	=34	=34
!	!	!LO:TX:a:t=problem: mixed beam	!	!	!	!	!	!	!	!	!	!	!	!
8F#\L	6	1ryy	.	1ryy	1ryy	8a\L	ve-	1ryy	8ff#\L	.	8aa\L	.	1ryy	1ryy
!	!	!	!	!	!	!	!	!	!LO:TX:a:t=problem: brak oznaczenia tercji	!	!	!	!	!
8G\	.	.	.	.	.	24b\L	.	.	24gg\L	.	24bb\L	.	.	.
.	.	.	.	.	.	24a\	.	.	24ff#\	.	24aa\	.	.	.
.	.	.	.	.	.	24g\JJ	.	.	24ee\JJ	.	24gg\JJ	.	.	.
8A\	4	.	.	.	.	8f#\L	.	.	8dd\L	.	8ff#\L	.	.	.
8AA/J	#	.	.	.	.	8e\J	.	.	8cc#X\J	.	8ee\J	.	.	.
8D\L	.	.	.	.	.	4d\	-nit	.	4dd\	.	4dd\	.	.	.
8d\J	.	.	.	.	.	.	.	.	.	.	.	.	.	.
16d\LL	.	.	.	.	.	4r	.	.	4r	.	4r	.	.	.
16c\	.	.	.	.	.	.	.	.	.	.	.	.	.	.
16B\	.	.	.	.	.	.	.	.	.	.	.	.	.	.
16A\JJ	.	.	.	.	.	.	.	.	.	.	.	.	.	.
=35	=35	=35	=35	=35	=35	=35	=35	=35	=35	=35	=35	=35	=35	=35
8G\L	.	1ryy	.	1ryy	1ryy	4.dd\	Be-	1ryy	4.b/	.	16gg\LL	.	1ryy	1ryy
.	.	.	.	.	.	.	.	.	.	.	16dd\JJ	.	.	.
8G\	.	.	.	.	.	.	.	.	.	.	4dd\	.	.	.
8B\	6	.	.	.	.	.	.	.	.	.	.	.	.	.
!	!	!	!	!	!	!	!	!	!LO:TX:a:t=problem: brak oznaczenia tercji	!	!	!	!	!
8G\J	.	.	.	.	.	24b\LL	-ne-	.	24g/LL	.	24b\LL	.	.	.
.	.	.	.	.	.	24cc\	.	.	24a/	.	24cc\	.	.	.
.	.	.	.	.	.	24dd\JJ	.	.	24b/JJ	.	24dd\JJ	.	.	.
.	.	.	.	.	.	.	.	.	.	.	8qqdd/	.	.	.
8r	.	.	.	.	.	8dd\	-di-	.	8a/	.	8cc\	.	.	.
8A\L	.	.	.	.	.	4cc\	-ctus	.	4a/	.	4cc\	.	.	.
8F#\	.	.	.	.	.	.	.	.	.	.	.	.	.	.
!	!	!	!	!	!	!	!	!	!LO:TX:a:t=problem: brak oznaczenia tercji	!	!	!	!	!
8D\J	7	.	.	.	.	24a\LL	qui	.	24f#/LL	.	24a\LL	.	.	.
.	.	.	.	.	.	24b\	.	.	24g/	.	24b\	.	.	.
.	.	.	.	.	.	24cc\JJ	.	.	24a/JJ	.	24cc\JJ	.	.	.
=36	=36	=36	=36	=36	=36	=36	=36	=36	=36	=36	=36	=36	=36	=36
8r	.	1ryy	.	1ryy	1ryy	8b\	ve-	1ryy	8g/	.	16b\LL	.	1ryy	1ryy
.	.	.	.	.	.	.	.	.	.	.	16bb\JJ	.	.	.
16G\LL	.	.	.	.	.	4b\	-nit	.	4gg\	.	4bb\	.	.	.
16F#\JJ	.	.	.	.	.	.	.	.	.	.	.	.	.	.
8G\L	.	.	.	.	.	.	.	.	.	.	.	.	.	.
!	!	!	!	!	!	!	!	!	!LO:TX:a:t=problem: brak oznaczenia tercji	!	!	!	!	!
8E\J	.	.	.	.	.	24g\LL	qui	.	24ee\LL	.	24gg\LL	.	.	.
.	.	.	.	.	.	24a\	.	.	24ff#\	.	24aa\	.	.	.
.	.	.	.	.	.	24b\JJ	.	.	24gg\JJ	.	24bb\JJ	.	.	.
8r	.	.	.	.	.	8a\	ve-	.	8ff#\	.	8aa\	.	.	.
8F#\L	.	.	.	.	.	4a\	-nit	.	4ff#\	.	4aa\	.	.	.
8D#X\	.	.	.	.	.	.	.	.	.	.	.	.	.	.
!	!	!	!	!	!	!	!	!	!LO:LB:g=original	!	!	!	!	!
!	!	!	!	!	!	!	!	!	!LO:TX:a:t=problem: brak oznaczenia tercji	!	!	!	!	!
8BB\J	7 #	.	.	.	.	24f#\LL	qui	.	24dd\LL	.	24ff#\LL	.	.	.
.	.	.	.	.	.	24g\	.	.	24ee\	.	24gg\	.	.	.
.	.	.	.	.	.	24a\JJ	.	.	24ff#\JJ	.	24aa\JJ	.	.	.
=37	=37	=37	=37	=37	=37	=37	=37	=37	=37	=37	=37	=37	=37	=37
4E\	.	2r	.	1ryy	1ryy	16g\LL	ve-	1ryy	16ee\LL	.	(16gg\LL	.	1ryy	1ryy
.	.	.	.	.	.	16a\	.	.	16ff#\	.	16aa\)	.	.	.
.	.	.	.	.	.	16a\	.	.	16ff#\	.	(16aa\	.	.	.
.	.	.	.	.	.	16b\JJ	.	.	16gg\JJ	.	16bb\JJ)	.	.	.
!	!	!	!	!	!	!	!	!	!LO:TX:a:t=problem: mixed beam	!	!	!	!	!
8r	.	.	.	.	.	16b\LL	.	.	16gg\LL	.	16bb\LL	.	.	.
.	.	.	.	.	.	16cc\	.	.	16aa\	.	16ccc\	.	.	.
8AA/	6 5	.	.	.	.	16cc\	.	.	16aa\	.	16ccc\	.	.	.
.	.	.	.	.	.	16e\JJ	.	.	16g/JJ	.	16ee\JJ	.	.	.
!	!	!LO:TX:a:t=problem: pauza szesnastkowa	!	!	!	!	!	!	!	!	!	!	!	!
.	.	.	.	.	.	8qqe/	.	.	.	.	8qqee/	.	.	.
4BB/	#	8r	.	.	.	4d#X\	-nit	.	4f#/	.	4dd#X\	.	.	.
!	!	!LO:TX:a:t=P:problem= brak oznaczenia trioli	!	!	!	!	!	!	!	!	!	!	!	!
.	.	24b\LL	.	.	.	.	.	.	.	.	.	.	.	.
.	.	24dd#X\	.	.	.	.	.	.	.	.	.	.	.	.
.	.	24ff#\JJ	.	.	.	.	.	.	.	.	.	.	.	.
!	!	!LO:TX:a:t=P:problem= brak oznaczenia trioli	!	!	!	!	!	!	!	!	!	!	!	!
8r	.	24bb\LL	.	.	.	4r	.	.	4r	.	4r	.	.	.
.	.	24aa\	.	.	.	.	.	.	.	.	.	.	.	.
.	.	24gg\JJ	.	.	.	.	.	.	.	.	.	.	.	.
!	!	!LO:TX:a:t=P:problem= brak oznaczenia trioli	!	!	!	!	!	!	!	!	!	!	!	!
8BB/	.	24ff#\LL	.	.	.	.	.	.	.	.	.	.	.	.
.	.	24gg\	.	.	.	.	.	.	.	.	.	.	.	.
.	.	24aa\JJ	.	.	.	.	.	.	.	.	.	.	.	.
=38	=38	=38	=38	=38	=38	=38	=38	=38	=38	=38	=38	=38	=38	=38
!LO:LB:g=original	!	!	!	!	!	!	!	!	!	!	!LO:LB:g=original	!	!	!
.	.	8qqaa/	.	.	.	.	.	.	.	.	.	.	.	.
4E\	.	4gg\	.	1ryy	1ryy	8r	.	1ryy	4g/	.	8r	.	1ryy	1ryy
.	.	.	.	.	.	8b\	qui	.	.	.	8b\L	.	.	.
8r	.	4r	.	.	.	8ee\L	ve-	.	8r	.	8ee\	.	.	.
8E\	7 #	.	.	.	.	8dd\J	.	.	8b\	.	8dd\J	.	.	.
!	!	!	!	!	!	!	!	!	!	!	!LO:TX:a:t=SIC:s4cc#	!	!	!
.	.	.	.	.	.	.	.	.	.	.	8qqdd/	.	.	.
4AA/	.	8r	.	.	.	4cc#X\	-nit	.	4e/	.	4cc\	.	.	.
!	!	!LO:TX:a:t=problem: brak oznaczenia trioli	!	!	!	!	!	!	!	!	!	!	!	!
.	.	24a\LL	.	.	.	.	.	.	.	.	.	.	.	.
!	!	!LO:TX:a:t=SIC:s=16cc#	!	!	!	!	!	!	!	!	!	!	!	!
.	.	24cc\	.	.	.	.	.	.	.	.	.	.	.	.
.	.	24ee\JJ	.	.	.	.	.	.	.	.	.	.	.	.
!	!	!LO:TX:a:t=P:problem= brak oznaczenia trioli	!	!	!	!	!	!	!	!	!	!	!	!
8r	.	24aa\LL	.	.	.	4r	.	.	8r	.	4r	.	.	.
.	.	24gg\	.	.	.	.	.	.	.	.	.	.	.	.
.	.	24ff#\JJ	.	.	.	.	.	.	.	.	.	.	.	.
!	!	!LO:TX:a:t=P:problem= brak oznaczenia trioli	!	!	!	!	!	!	!	!	!	!	!	!
8C#X/	.	24ee\LL	.	.	.	.	.	.	8a/	.	.	.	.	.
.	.	24ff#\	.	.	.	.	.	.	.	.	.	.	.	.
.	.	24gg\JJ	.	.	.	.	.	.	.	.	.	.	.	.
=39	=39	=39	=39	=39	=39	=39	=39	=39	=39	=39	=39	=39	=39	=39
.	.	8qqgg/	.	.	.	.	.	.	.	.	.	.	.	.
!	!	!	!	!	!	!LO:LB:g=original	!	!	!	!	!	!	!	!
4D\	.	4ff#\	.	1ryy	1ryy	8r	.	1ryy	4f#/	.	8r	.	1ryy	1ryy
.	.	.	.	.	.	8a\	qui	.	.	.	8a\L	.	.	.
8r	.	4r	.	.	.	(8dd\L	ve-	.	8r	.	8dd\	.	.	.
8F#\	.	.	.	.	.	8cc\J)	.	.	8a/	.	8cc\J	.	.	.
.	.	.	.	.	.	.	.	.	.	.	8qqcc/	.	.	.
4G\	.	8r	.	.	.	4b\	-nit	.	4d/	.	4b\	.	.	.
!	!	!LO:TX:a:t=problem: brak oznaczenia trioli	!	!	!	!	!	!	!	!	!	!	!	!
.	.	24g\LL	.	.	.	.	.	.	.	.	.	.	.	.
.	.	24b\	.	.	.	.	.	.	.	.	.	.	.	.
.	.	24dd\JJ	.	.	.	.	.	.	.	.	.	.	.	.
!	!	!LO:TX:a:t=P:problem= brak oznaczenia trioli	!	!	!	!	!	!	!	!	!	!	!	!
8r	.	24gg\LL	.	.	.	4r	.	.	8r	.	4r	.	.	.
.	.	24ffn\	.	.	.	.	.	.	.	.	.	.	.	.
.	.	24ee\JJ	.	.	.	.	.	.	.	.	.	.	.	.
!	!	!LO:TX:a:t=P:problem= brak oznaczenia trioli	!	!	!	!	!	!	!	!	!	!	!	!
8BB/	.	24dd\LL	.	.	.	.	.	.	8g/	.	.	.	.	.
.	.	24ee\	.	.	.	.	.	.	.	.	.	.	.	.
.	.	24ff\JJ	.	.	.	.	.	.	.	.	.	.	.	.
=40	=40	=40	=40	=40	=40	=40	=40	=40	=40	=40	=40	=40	=40	=40
4E\	.	4ee\	.	1ryy	1ryy	8r	.	1ryy	4g/	.	8r	.	1ryy	1ryy
.	.	.	.	.	.	8ee\	in	.	.	.	8ee\L	.	.	.
8r	.	4r	.	.	.	8ee\	no-	.	8r	.	8ee\	.	.	.
8BB/	6|	.	.	.	.	16ee\	-mi-	.	8g#X/	.	8ee\J	.	.	.
.	.	.	.	.	.	16ee\	-ne	.	.	.	.	.	.	.
4AA/	.	2r	.	.	.	16ee\LL	Do-	.	4a/	.	16ee\LL	.	.	.
.	.	.	.	.	.	16dd\	.	.	.	.	16dd\	.	.	.
.	.	.	.	.	.	16cc\	.	.	.	.	16cc\	.	.	.
.	.	.	.	.	.	16b\JJ	.	.	.	.	16b\JJ	.	.	.
8r	.	.	.	.	.	16a\LL	.	.	8r	.	16a/LL	.	.	.
.	.	.	.	.	.	16b\	.	.	.	.	16b/	.	.	.
8C#X/	6 5	.	.	.	.	(16g\	-mi-	.	8e/	.	16g/	.	.	.
.	.	.	.	.	.	16a\JJ)	.	.	.	.	16a/JJ	.	.	.
=41	=41	=41	=41	=41	=41	=41	=41	=41	=41	=41	=41	=41	=41	=41
!LO:TX:a:t=problem: mixed beam	!	!	!	!	!	!	!	!	!	!	!	!	!	!
.	.	.	.	.	.	8qqg/	.	.	.	.	8qqg/	.	.	.
8D\L	.	1ryy	.	1ryy	1ryy	4f#\	-ni	1ryy	4A/	.	4f#/	.	1ryy	1ryy
8DD/	.	.	.	.	.	.	.	.	.	.	.	.	.	.
8D\J	.	.	.	.	.	4r	.	.	4r	.	8r	.	.	.
8r	.	.	.	.	.	.	.	.	.	.	16r	.	.	.
.	.	.	.	.	.	.	.	.	.	.	16d/	.	.	.
8r	.	.	.	.	.	4.g\	Be-	.	8r	.	4.g/	.	.	.
8G\L	.	.	.	.	.	.	.	.	8b\L	.	.	.	.	.
8B\	.	.	.	.	.	.	.	.	8dd\	.	.	.	.	.
8G\J	.	.	.	.	.	16b\LL	-ne-	.	8b\J	.	16b/LL	.	.	.
.	.	.	.	.	.	16dd\JJ	.	.	.	.	16dd/JJ	.	.	.
=42	=42	=42	=42	=42	=42	=42	=42	=42	=42	=42	=42	=42	=42	=42
4A\	.	1ryy	.	1ryy	1ryy	16dd\LL	-di-	1ryy	4e/	.	(16dd\LL	.	1ryy	1ryy
.	.	.	.	.	.	16cc\	.	.	.	.	16cc\	.	.	.
.	.	.	.	.	.	16b\	.	.	.	.	16b\	.	.	.
.	.	.	.	.	.	16a\JJ	.	.	.	.	16a\JJ)	.	.	.
8F#\L	.	.	.	.	.	8.a\	-ctus	.	8a/L	.	8a\L	.	.	.
8D\J	.	.	.	.	.	.	.	.	8f#/J	.	16r	.	.	.
.	.	.	.	.	.	16cc\	qui	.	.	.	16cc\Jk	.	.	.
4G\	.	.	.	.	.	16b\LL	ve-	.	4d/	.	16b\LL	.	.	.
.	.	.	.	.	.	16a\	.	.	.	.	16a\	.	.	.
.	.	.	.	.	.	16cc\	.	.	.	.	16cc\	.	.	.
.	.	.	.	.	.	16b\JJ	.	.	.	.	16b\JJ	.	.	.
8r	.	.	.	.	.	16dd\LL	.	.	8r	.	16dd\LL	.	.	.
.	.	.	.	.	.	16cc\	.	.	.	.	16cc\	.	.	.
8C/	.	.	.	.	.	16ee\	.	.	8e/	.	16ee\	.	.	.
.	.	.	.	.	.	16cc\JJ	.	.	.	.	16cc\JJ	.	.	.
*	*	*clefF4	*	*	*	*	*	*	*	*	*	*	*	*
=43	=43	=43	=43	=43	=43	=43	=43	=43	=43	=43	=43	=43	=43	=43
!LO:LB:g=original	!LO:TX:a:t=problem: takty zamazane, powinna być zmiana klucza	!	!	!	!	!	!	!	!	!	!	!	!	!
.	.	.	.	.	.	8qqb/	.	.	.	.	.	.	.	.
8D\L	.	8D\Lyy	.	1ryy	1ryy	4a\	-nit	1ryy	4f#/	.	8b/L	.	1ryy	1ryy
8d\J	.	8d\Jyy	.	.	.	.	.	.	.	.	8a/J	.	.	.
16d\LL	.	16d\LLyy	.	.	.	8r	.	.	4r	.	8r	.	.	.
16c\	.	16c\yy	.	.	.	.	.	.	.	.	.	.	.	.
16B\	.	16B\yy	.	.	.	16r	.	.	.	.	16r	.	.	.
16A\JJ	.	16A\JJyy	.	.	.	16d\	in	.	.	.	16d/	.	.	.
8G\L	.	8G\Lyy	.	.	.	4.g\	no-	.	8r	.	4.g/	.	.	.
8G\	.	8G\yy	.	.	.	.	.	.	8B/L	.	.	.	.	.
8B\	.	8B\yy	.	.	.	.	.	.	8d/	.	.	.	.	.
8G\J	.	8G\Jyy	.	.	.	16b\LL	.	.	8B/J	.	16b/LL	.	.	.
.	.	.	.	.	.	16dd\JJ	.	.	.	.	16dd/JJ	.	.	.
=44	=44	=44	=44	=44	=44	=44	=44	=44	=44	=44	=44	=44	=44	=44
!	!	!	!	!	!	!LO:LB:g=original	!	!	!	!	!LO:LB:g=original	!	!	!
4A\	5	4A\yy	.	1ryy	1ryy	16dd\LL	.	1ryy	4e/	.	(16dd\LL	.	1ryy	1ryy
.	.	.	.	.	.	16cc\JJ	.	.	.	.	16cc\	.	.	.
.	.	.	.	.	.	(16b\LL	-mi-	.	.	.	16b\	.	.	.
.	.	.	.	.	.	16a\JJ)	.	.	.	.	16a\JJ)	.	.	.
8F#\L	.	8F#\Lyy	.	.	.	4a\	-ne	.	8a/L	.	8a\L	.	.	.
8D\J	7	8D\Jyy	.	.	.	.	.	.	8f#/J	.	16r	.	.	.
.	.	.	.	.	.	.	.	.	.	.	16cc\Jk	.	.	.
!LO:TX:a:t=problem: mixed beam	!	!	!	!	!	!	!	!	!	!	!	!	!	!
!	!	!LO:TX:a:t=problem: mixed beam	!	!	!	!	!	!	!	!	!	!	!	!
8G\L	.	8G\Lyy	.	.	.	24b\LL	Do-	.	8g/L	.	24b\LL	.	.	.
.	.	.	.	.	.	24a\	.	.	.	.	24a\	.	.	.
.	.	.	.	.	.	24b\JJ	.	.	.	.	24b\JJ	.	.	.
8c\	.	8c\yy	.	.	.	24cc\LL	.	.	8e/	.	24cc\LL	.	.	.
.	.	.	.	.	.	24b\	.	.	.	.	24b\	.	.	.
.	.	.	.	.	.	24a\JJ	.	.	.	.	24a\JJ	.	.	.
8d\	6 4	8d\yy	.	.	.	8g\	.	.	8B/	.	8g/L	.	.	.
8D/J	5 3	8D/Jyy	.	.	.	8f#\	-mi-	.	8A/J	.	8f#/J	.	.	.
*	*	*clefC1	*	*	*	*	*	*	*	*	*	*	*	*
=45	=45	=45	=45	=45	=45	=45	=45	=45	=45	=45	=45	=45	=45	=45
!LO:TX:a:t=problem: brak oznaczenia trioli	!	!	!	!	!	!	!	!	!LO:LB:g=original	!	!	!	!	!
!LO:TX:a:t=problem: cross staff beam	!	!	!	!	!	!	!	!	!LO:TX:a:t=problem: nuta nieczytelna, defekt rkp	!	!	!	!	!
24G\LL	.	8r	.	1ryy	1ryy	4g\	-ni	1ryy	4G/yy	.	4g/	.	1ryy	1ryy
24B\	.	.	.	.	.	.	.	.	.	.	.	.	.	.
24d\JJ	.	.	.	.	.	.	.	.	.	.	.	.	.	.
!	!	!LO:TX:a:t=problem: brak oznaczenia trioli	!	!	!	!	!	!	!	!	!	!	!	!
8r	.	24g/LL	.	.	.	.	.	.	.	.	.	.	.	.
.	.	24b/	.	.	.	.	.	.	.	.	.	.	.	.
.	.	24dd/JJ	.	.	.	.	.	.	.	.	.	.	.	.
!	!	!LO:TX:a:t=P:problem= brak oznaczenia trioli	!	!	!	!	!	!	!	!	!	!	!	!
4r	.	24gg\LL	.	.	.	4r	.	.	4r	.	4r	.	.	.
.	.	24bb\	.	.	.	.	.	.	.	.	.	.	.	.
.	.	24aa\JJ	.	.	.	.	.	.	.	.	.	.	.	.
!	!	!LO:TX:a:t=P:problem= brak oznaczenia trioli	!	!	!	!	!	!	!	!	!	!	!	!
.	.	4qqccc/	.	.	.	.	.	.	.	.	.	.	.	.
.	.	24bb\LL	.	.	.	.	.	.	.	.	.	.	.	.
.	.	24aa\	.	.	.	.	.	.	.	.	.	.	.	.
.	.	24gg\JJ	.	.	.	.	.	.	.	.	.	.	.	.
*clefC1	*	*	*	*	*	*	*	*	*	*	*	*	*	*
8r	.	8ff#\L	.	.	.	8r	.	.	8r	.	8r	.	.	.
16a/LL	.	8ff#\	.	.	.	8a\	qui	.	8d/L	.	8d/L	.	.	.
16d/JJ	.	.	.	.	.	.	.	.	.	.	.	.	.	.
16b/LL	.	8gg\	.	.	.	8b\L	ve-	.	8d/	.	8d/	.	.	.
16d/	.	.	.	.	.	.	.	.	.	.	.	.	.	.
16cc/	.	8aa\J	.	.	.	8cc\J	.	.	8d/J	.	8d/J	.	.	.
16d/JJ	.	.	.	.	.	.	.	.	.	.	.	.	.	.
=46	=46	=46	=46	=46	=46	=46	=46	=46	=46	=46	=46	=46	=46	=46
!	!	!LO:TX:a:t=problem: brak oznaczenia trioli	!	!	!	!	!	!	!	!	!	!	!	!
.	.	.	.	.	.	8qqcc/	.	.	.	.	.	.	.	.
8d/ 8b	.	24gg\LL	.	1ryy	1ryy	4b\	-nit	1ryy	4g/	.	4g/	.	1ryy	1ryy
.	.	24ff#\	.	.	.	.	.	.	.	.	.	.	.	.
.	.	24gg\JJ	.	.	.	.	.	.	.	.	.	.	.	.
!LO:TX:a:t=problem: brak oznaczenia trioli	!	!	!	!	!	!	!	!	!	!	!	!	!	!
24g\LL	.	8r	.	.	.	.	.	.	.	.	.	.	.	.
24b\	.	.	.	.	.	.	.	.	.	.	.	.	.	.
24dd\JJ	.	.	.	.	.	.	.	.	.	.	.	.	.	.
!	!	!LO:TX:a:t=P:problem= brak oznaczenia trioli	!	!	!	!	!	!	!	!	!	!	!	!
4r	.	24gg\LL	.	.	.	4r	.	.	4r	.	4r	.	.	.
.	.	24bb\	.	.	.	.	.	.	.	.	.	.	.	.
.	.	24aa\JJ	.	.	.	.	.	.	.	.	.	.	.	.
!	!	!LO:TX:a:t=P:problem= brak oznaczenia trioli	!	!	!	!	!	!	!	!	!	!	!	!
.	.	8qqccc/	.	.	.	.	.	.	.	.	.	.	.	.
.	.	24bb\LL	.	.	.	.	.	.	.	.	.	.	.	.
.	.	24aa\	.	.	.	.	.	.	.	.	.	.	.	.
.	.	24gg\JJ	.	.	.	.	.	.	.	.	.	.	.	.
8r	.	8ff#\L	.	.	.	8r	.	.	8r	.	8r	.	.	.
16a/LL	.	8ff#\	.	.	.	8a\	qui	.	8d/L	.	8d/L	.	.	.
16d/JJ	.	.	.	.	.	.	.	.	.	.	.	.	.	.
16b/LL	.	8gg\	.	.	.	8b\L	ve-	.	8d/	.	8d/	.	.	.
16d/	.	.	.	.	.	.	.	.	.	.	.	.	.	.
16cc/	.	8aa\J	.	.	.	8cc\J	.	.	8d/J	.	8d/J	.	.	.
16d/JJ	.	.	.	.	.	.	.	.	.	.	.	.	.	.
=47	=47	=47	=47	=47	=47	=47	=47	=47	=47	=47	=47	=47	=47	=47
!LO:LB:g=original	!	!	!	!	!	!	!	!	!	!	!	!	!	!
.	.	.	.	.	.	8qqcc/	.	.	.	.	.	.	.	.
*^	*	*	*	*	*	*	*	*	*	*	*	*	*	*
8b/L	8g\L	.	8gg\L	.	1ryy	1ryy	4b\	-nit	1ryy	4g/	.	4g/	.	1ryy	1ryy
8b/J	8g\J	.	(32bb\LL	.	.	.	.	.	.	.	.	.	.	.	.
.	.	.	32aa\	.	.	.	.	.	.	.	.	.	.	.	.
.	.	.	32bb\	.	.	.	.	.	.	.	.	.	.	.	.
.	.	.	32ccc\JJJ)	.	.	.	.	.	.	.	.	.	.	.	.
*clefF4	*	*	*	*	*	*	*	*	*	*	*	*	*	*	*
8r	4ryy	.	16bb'\LL	.	.	.	8r	.	.	8r	.	8r	.	.	.
.	.	.	16aa'\	.	.	.	.	.	.	.	.	.	.	.	.
8B\	.	.	16gg'\	.	.	.	16g\LL	qui	.	8g/	.	16gg\LL	.	.	.
.	.	.	16ff#'\JJ	.	.	.	16f#\JJ	.	.	.	.	16ee\JJ	.	.	.
.	.	.	.	.	.	.	.	.	.	.	.	8qqff#/	.	.	.
4c\	4ryy	.	8ee\L	.	.	.	8e\	ve-	.	4g/	.	8ee\L	.	.	.
.	.	.	(32gg\LL	.	.	.	8e\	-nit	.	.	.	8ee\J	.	.	.
.	.	.	32ff#\	.	.	.	.	.	.	.	.	.	.	.	.
.	.	.	32gg\	.	.	.	.	.	.	.	.	.	.	.	.
.	.	.	32aa\JJJ)	.	.	.	.	.	.	.	.	.	.	.	.
8r	4ryy	.	16gg'\LL	.	.	.	8r	.	.	8r	.	8r	.	.	.
.	.	.	16ff#'\	.	.	.	.	.	.	.	.	.	.	.	.
8G\	.	.	16ee'\	.	.	.	16ee\LL	in	.	8b\	.	16ee\LL	.	.	.
.	.	.	16dd'\JJ	.	.	.	16dd\JJ	.	.	.	.	16dd\JJ	.	.	.
*v	*v	*	*	*	*	*	*	*	*	*	*	*	*	*	*
=48	=48	=48	=48	=48	=48	=48	=48	=48	=48	=48	=48	=48	=48	=48
.	.	.	.	.	.	.	.	.	.	.	8qqdd/	.	.	.
8A\L	.	4cc\	.	1ryy	1ryy	8.cc\L	no-	1ryy	8.a\L	.	8.cc\L	.	1ryy	1ryy
8G\	.	.	.	.	.	.	.	.	.	.	.	.	.	.
.	.	.	.	.	.	16ee\Jk	.	.	16cc\Jk	.	16ee\Jk	.	.	.
8F#\	6	4r	.	.	.	16ee\LL	.	.	16cc\LL	.	16ee\LL	.	.	.
.	.	.	.	.	.	16dd\JJ	.	.	16b\	.	16dd\	.	.	.
8D\J	7	.	.	.	.	16dd\	-mi-	.	16b\	.	16dd\	.	.	.
.	.	.	.	.	.	16cc\	-ne	.	16a\JJ	.	16cc\JJ	.	.	.
!LO:TX:a:t=problem: mixed beam	!	!	!	!	!	!	!	!	!	!	!	!	!	!
!	!	!LO:TX:a:t=Da Capo ad signum Finis	!	!	!	!	!	!	!LO:TX:a:t=problem: brak oznaczenia tercji	!	!LO:TX:a:t=problem: brak oznaczenia trioli	!	!	!
*	*	*	*	*	*	*	*	*	*	*	*Xtuplet	*	*	*
8G\L	.	2r	.	.	.	24b\LL	Do-	.	24g/LL	.	24b\LL	.	.	.
.	.	.	.	.	.	24cc\	.	.	24a/	.	24cc\	.	.	.
.	.	.	.	.	.	24dd\JJ	.	.	24b/JJ	.	24dd\JJ	.	.	.
!	!	!	!	!	!	!	!	!	!LO:TX:a:t=problem: brak oznaczenia trioli	!	!LO:TX:a:t=problem: brak oznaczenia trioli	!	!	!
8c\	.	.	.	.	.	24ee\LL	.	.	24cc/LL	.	24ee\LL	.	.	.
.	.	.	.	.	.	24dd\	.	.	24b/	.	24dd\	.	.	.
.	.	.	.	.	.	24cc\JJ	.	.	24a/JJ	.	24cc\JJ	.	.	.
8d\	6 4	.	.	.	.	8b\	.	.	8g/L	.	8b/L	.	.	.
!	!	!	!	!	!	!	!	!	!LO:TX:a:t=Da Capo	!	!LO:TX:a:t=Da Capo ut Fin	!	!	!
8D/J	5 3	.	.	.	.	8a\	-mi-	.	8f#/J	.	8a/J	.	.	.
==49	==49	==49	==49	==49	==49	==49	==49	==49	==49	==49	==49	==49	==49	==49
*	*	*	*	*	*	*	*	*	*tuplet	*	*tuplet	*	*	*
!	!	!LO:TX:a:t =Andate Solo	!	!	!	!LO:LB:g=original	!	!	!	!	!LO:TX:a:t=Andante	!	!	!
8r	.	1ryy	.	1ryy	1ryy	4g\	-ni	1ryy	16gg\LL	.	16gg\LL	.	1ryy	1ryy
.	.	.	.	.	.	.	.	.	16dd\JJ	.	16dd\JJ	.	.	.
8G\L	.	.	.	.	.	.	.	.	4dd\	.	4dd\	.	.	.
8B\	.	.	.	.	.	4r	.	.	.	.	.	.	.	.
8G\J	.	.	.	.	.	.	.	.	24b\LL	.	24b\LL	.	.	.
.	.	.	.	.	.	.	.	.	24cc\	.	24cc\	.	.	.
.	.	.	.	.	.	.	.	.	24dd\JJ	.	24dd\JJ	.	.	.
.	.	.	.	.	.	.	.	.	8qqdd/	.	4qqdd/	.	.	.
8r	.	.	.	.	.	2r	.	.	8cc\	.	8cc\	.	.	.
8A\L	.	.	.	.	.	.	.	.	4cc\	.	4cc\	.	.	.
8F#\	5	.	.	.	.	.	.	.	.	.	.	.	.	.
8D\J	7	.	.	.	.	.	.	.	24a\LL	.	24a\LL	.	.	.
.	.	.	.	.	.	.	.	.	24b\	.	24b\	.	.	.
.	.	.	.	.	.	.	.	.	24cc\JJ	.	24cc\JJ	.	.	.
=50	=50	=50	=50	=50	=50	=50	=50	=50	=50	=50	=50	=50	=50	=50
.	.	.	.	.	.	.	.	.	8qqcc/	.	8qqcc/	.	.	.
!	!	!	!	!	!	!LO:TX:a:t=9	!	!	!	!	!	!	!	!
8r	.	1ryy	.	1ryy	1ryy	00r	.	1ryy	8b\	.	8b\	.	1ryy	1ryy
16G\LL	.	.	.	.	.	.	.	.	4b\	.	4b\	.	.	.
16F#\JJ	.	.	.	.	.	.	.	.	.	.	.	.	.	.
!LO:TX:a:t=problem: mixed beam	!	!	!	!	!	!	!	!	!	!	!	!	!	!
8G\L	.	.	.	.	.	.	.	.	.	.	.	.	.	.
!	!	!	!	!	!	!	!	!	!	!	!LO:TUP:b	!	!	!
8BB/J	6	.	.	.	.	.	.	.	24g\LL	.	24g/LL	.	.	.
.	.	.	.	.	.	.	.	.	24a\	.	24a/	.	.	.
.	.	.	.	.	.	.	.	.	24b\JJ	.	24b/JJ	.	.	.
8C/L	6	.	.	.	.	.	.	.	8a\L	.	8a/L	.	.	.
!	!	!	!	!	!	!	!	!	!	!	!LO:TUP:b	!	!	!
8AA/J	.	.	.	.	.	.	.	.	24cc\L	.	24cc/L	.	.	.
.	.	.	.	.	.	.	.	.	24b\	.	24b/	.	.	.
.	.	.	.	.	.	.	.	.	24a\JJ	.	24a/JJ	.	.	.
!LO:TX:a:t=problem: mixed beam	!	!	!	!	!	!	!	!	!	!	!	!	!	!
8D\L	4	.	.	.	.	.	.	.	16a\LL	.	(16a/LL	.	.	.
.	.	.	.	.	.	.	.	.	16g\	.	16g/)	.	.	.
8DD/J	3	.	.	.	.	.	.	.	16g\	.	(16g/	.	.	.
.	.	.	.	.	.	.	.	.	16f#\JJ	.	16f#/JJ)	.	.	.
=51	=51	=51	=51	=51	=51	=51	=51	=51	=51	=51	=51	=51	=51	=51
4GG/	.	2r	.	1ryy	1ryy	.	.	1ryy	8g/L	.	8g/L	.	1ryy	1ryy
.	.	.	.	.	.	.	.	.	32B/LL	.	(32B/LL	.	.	.
.	.	.	.	.	.	.	.	.	32c/	.	32c/	.	.	.
.	.	.	.	.	.	.	.	.	32d/	.	32d/	.	.	.
.	.	.	.	.	.	.	.	.	32e/JJJ	.	32e/JJJ)	.	.	.
!	!	!	!	!	!	!	!	!	!	!	!LO:LB:g=original	!	!	!
4r	.	.	.	.	.	.	.	.	16d/LL	.	16d/LL	.	.	.
.	.	.	.	.	.	.	.	.	16c/	.	16c/	.	.	.
.	.	.	.	.	.	.	.	.	16B/	.	16B/	.	.	.
.	.	.	.	.	.	.	.	.	16A/JJ	.	16A/JJ	.	.	.
!LO:TX:a:t=problem: cross staff beam	!	!	!	!	!	!	!	!	!	!	!LO:TX:a:t=problem: mixed beam	!LO:DY:a	!	!
16G\LL	.	4r	.	.	.	.	.	.	16G/LL	.	16G\LL	p	.	.
!	!	!	!	!	!	!	!	!	!	!LO:DY:t=p:	!	!	!	!
!	!	!	!	!	!	!	!	!	!	!LO:DY:b	!	!	!	!
16B\	.	.	.	.	.	.	.	.	16d/ 16b	p	16g/	.	.	.
16d\	.	.	.	.	.	.	.	.	16d/ 16b	.	16g/	.	.	.
16g\JJ	.	.	.	.	.	.	.	.	16d/JJ 16b	.	16g/JJ	.	.	.
!	!	!	!	!	!	!	!	!	!	!	!LO:TX:a:t=problem: brak grupy szesnastkowej, niepełna miara taktu	!	!	!
*	*	*	*	*	*	*	*	*	*tremolo	*	*	*	*	*
4r	.	16b\LL	.	.	.	.	.	.	16d/LL 16b	.	16g/LLyy	.	.	.
.	.	16dd\	.	.	.	.	.	.	16d/ 16b	.	16g/yy	.	.	.
.	.	16gg\	.	.	.	.	.	.	16d/ 16b	.	16g/yy	.	.	.
.	.	16bb\JJ	.	.	.	.	.	.	16d/JJ 16b	.	16g/JJyy	.	.	.
=52	=52	=52	=52	=52	=52	=52	=52	=52	=52	=52	=52	=52	=52	=52
*	*	*	*	*	*	*	*	*	*	*	*tremolo	*	*	*
4F#\	.	16bb\LL	.	1ryy	1ryy	.	.	1ryy	16d/LL 16a	.	16a/LL	.	1ryy	1ryy
.	.	16aa\	.	.	.	.	.	.	16d/ 16a	.	16a/	.	.	.
.	.	16ff#\	.	.	.	.	.	.	16d/ 16a	.	16a/	.	.	.
!	!	!	!LO:DY:a	!	!	!	!	!	!	!	!	!	!	!
.	.	16dd\JJ	f	.	.	.	.	.	16d/ 16a	.	16a/JJ	.	.	.
8r	.	16dd\LL	.	.	.	.	.	.	16d/ 16a	.	16a/LL	.	.	.
.	.	16cc\	.	.	.	.	.	.	16d/ 16a	.	16a/	.	.	.
8D\	.	16b\	.	.	.	.	.	.	16d/ 16a	.	16a/	.	.	.
.	.	16a\JJ	.	.	.	.	.	.	16d/JJ 16a	.	16a/JJ	.	.	.
!LO:TX:a:t=problem: cross staff beam	!	!	!	!	!	!	!	!	!	!	!	!	!	!
16G\LL	.	8g\	.	.	.	.	.	.	16d/LL 16b	.	16b/LL	.	.	.
16B\	.	.	.	.	.	.	.	.	16d/ 16b	.	16b/	.	.	.
16d\	.	8rb	.	.	.	.	.	.	16d/ 16b	.	16b/	.	.	.
16g\JJ	.	.	.	.	.	.	.	.	16d/ 16b	.	16b/JJ	.	.	.
4r	.	16b\LL	.	.	.	.	.	.	16d/ 16b	.	16b/LL	.	.	.
.	.	16dd\	.	.	.	.	.	.	16d/ 16b	.	16b/	.	.	.
.	.	16gg\	.	.	.	.	.	.	16d/ 16b	.	16b/	.	.	.
.	.	16bb\JJ	.	.	.	.	.	.	16d/JJ 16b	.	16b/JJ	.	.	.
=53	=53	=53	=53	=53	=53	=53	=53	=53	=53	=53	=53	=53	=53	=53
!LO:LB:g=original	!	!	!	!	!	!	!	!	!LO:LB:g=original	!	!	!	!	!
4F#\	.	16bb\LL	.	1ryy	1ryy	.	.	1ryy	16d/LL 16a	.	16a/LL	.	1ryy	1ryy
.	.	16aa\	.	.	.	.	.	.	16d/ 16a	.	16a/	.	.	.
.	.	16ff#\	.	.	.	.	.	.	16d/ 16a	.	16a/	.	.	.
.	.	16dd\JJ	.	.	.	.	.	.	16d/ 16a	.	16a/JJ	.	.	.
8r	.	16dd\LL	.	.	.	.	.	.	16d/ 16a	.	16a/LL	.	.	.
.	.	16cc\	.	.	.	.	.	.	16d/ 16a	.	16a/	.	.	.
8D\	.	16b\	.	.	.	.	.	.	16d/ 16a	.	16a/	.	.	.
.	.	16a\JJ	.	.	.	.	.	.	16d/JJ 16a	.	16a/JJ	.	.	.
!	!	!	!	!	!	!	!	!	!LO:TX:a:t=problem: mixed beam	!	!LO:TX:a:t=problem: mixed beam	!	!	!
*	*	*	*	*	*	*	*	*	*Xtremolo	*	*Xtremolo	*	*	*
4G\	.	8b\	.	.	.	.	.	.	16b/LL	.	16b/LL	.	.	.
!	!	!	!	!	!	!	!	!	!	!	!	!LO:DY:t=for.	!	!
!	!	!	!	!	!	!	!	!	!	!	!	!LO:DY:b	!	!
.	.	.	.	.	.	.	.	.	16g/	.	16g/	f	.	.
!	!	!	!	!	!	!	!	!	!	!LO:DY:t=forte	!	!	!	!
!	!	!	!	!	!	!	!	!	!	!LO:DY:b	!	!	!	!
.	.	8r	.	.	.	.	.	.	16gg\	f	16gg\	.	.	.
.	.	.	.	.	.	.	.	.	16gg\JJ	.	16gg\JJ	.	.	.
8r	.	4r	.	.	.	.	.	.	24gg\LL	.	24gg\LL	.	.	.
.	.	.	.	.	.	.	.	.	24aa\	.	24aa\	.	.	.
.	.	.	.	.	.	.	.	.	24gg\JJ	.	24gg\JJ	.	.	.
8B\	6	.	.	.	.	.	.	.	24ff#\LL	.	24ff#\LL	.	.	.
.	.	.	.	.	.	.	.	.	24gg\	.	24gg\	.	.	.
.	.	.	.	.	.	.	.	.	24ff#\JJ	.	24ff#\JJ	.	.	.
=54	=54	=54	=54	=54	=54	=54	=54	=54	=54	=54	=54	=54	=54	=54
!	!	!	!	!	!	!	!	!	!LO:TX:a:t=problem: mixed beam	!	!LO:TX:a:t=problem: mixed beam	!	!	!
4c\	5	1r	.	1ryy	1ryy	00r	.	1ryy	16ee\LL	.	16ee\LL	.	1ryy	1ryy
.	.	.	.	.	.	.	.	.	16e/	.	16e/	.	.	.
.	.	.	.	.	.	.	.	.	16ee\	.	16.ee\	.	.	.
.	.	.	.	.	.	.	.	.	16ee\JJ	.	.	.	.	.
.	.	.	.	.	.	.	.	.	.	.	32ee\JJk	.	.	.
8r	.	.	.	.	.	.	.	.	24ee\LL	.	24ee\LL	.	.	.
!	!	!	!	!	!	!	!	!	!LO:TX:a:t=SIC:s=16ffn	!	!	!	!	!
.	.	.	.	.	.	.	.	.	24ff#\	.	24ffn\	.	.	.
.	.	.	.	.	.	.	.	.	24ee\JJ	.	24ee\JJ	.	.	.
8G#X\	6	.	.	.	.	.	.	.	24dd\LL	.	24dd\LL	.	.	.
.	.	.	.	.	.	.	.	.	24ee\	.	24ee\	.	.	.
.	.	.	.	.	.	.	.	.	24dd\JJ	.	24dd\JJ	.	.	.
!	!	!	!	!	!	!	!	!	!LO:TX:a:t=problem: mixed beam	!	!	!	!	!
4A\	5	.	.	.	.	.	.	.	16cc\LL	.	16.cc\LL	.	.	.
.	.	.	.	.	.	.	.	.	16c/	.	.	.	.	.
.	.	.	.	.	.	.	.	.	.	.	32a\K	.	.	.
.	.	.	.	.	.	.	.	.	16ccc\	.	16ccc\	.	.	.
.	.	.	.	.	.	.	.	.	16ccc\JJ	.	16ccc\JJ	.	.	.
!	!	!	!	!	!	!	!	!	!LO:TX:a:t=problem: brak oznaczenia tercji	!	!	!	!	!
*	*	*	*	*	*	*	*	*	*Xtuplet	*	*	*	*	*
8F#\L	6	.	.	.	.	.	.	.	24ccc\LL	.	24ccc\LL	.	.	.
.	.	.	.	.	.	.	.	.	24ddd\	.	24ddd\	.	.	.
.	.	.	.	.	.	.	.	.	24ccc\JJ	.	24ccc\JJ	.	.	.
!	!	!	!	!	!	!	!	!	!LO:TX:a:t=problem: brak oznaczenia tercji	!	!LO:TX:a:t=problem: brak oznaczenia trioli	!	!	!
*	*	*	*	*	*	*	*	*	*	*	*Xtuplet	*	*	*
8Gn\J	5	.	.	.	.	.	.	.	24bb\LL	.	24bb\LL	.	.	.
.	.	.	.	.	.	.	.	.	24ccc\	.	24ccc\	.	.	.
.	.	.	.	.	.	.	.	.	24bb\JJ	.	24bb\JJ	.	.	.
*	*	*	*	*	*	*	*	*	*tuplet	*	*tuplet	*	*	*
=55	=55	=55	=55	=55	=55	=55	=55	=55	=55	=55	=55	=55	=55	=55
!LO:TX:a:t=problem: mixed beam	!	!	!	!	!	!	!	!	!	!	!	!	!	!
8c\L	.	2r	.	1ryy	1ryy	.	.	1ryy	8aa\L	.	8aa\L	.	1ryy	1ryy
8A\	.	.	.	.	.	.	.	.	24ccc\L	.	24ccc\L	.	.	.
.	.	.	.	.	.	.	.	.	24bb\	.	24bb\	.	.	.
.	.	.	.	.	.	.	.	.	24aa\JJ	.	24aa\JJ	.	.	.
8d\	4	.	.	.	.	.	.	.	16aa\LL	.	(16aa\LL	.	.	.
.	9	.	.	.	.	.	.	.	16gg\	.	16gg\)	.	.	.
8D/J	.	.	.	.	.	.	.	.	16gg\	.	(16gg\	.	.	.
.	.	.	.	.	.	.	.	.	16ff#\JJ	.	16ff#\JJ)	.	.	.
!	!	!LO:TX:a:t=problem: mixed beam	!	!	!	!	!	!	!	!LO:DY:t=pia	!	!	!	!
!	!	!	!	!	!	!	!	!	!	!LO:DY:b	!	!	!	!
4G\	.	16gg\LL	.	.	.	.	.	.	4gg\	p	4gg\	.	.	.
.	.	16g/	.	.	.	.	.	.	.	.	.	.	.	.
.	.	16gg\	.	.	.	.	.	.	.	.	.	.	.	.
.	.	16gg\JJ	.	.	.	.	.	.	.	.	.	.	.	.
8r	.	24gg\LL	.	.	.	.	.	.	8r	.	8r	.	.	.
.	.	24aa\	.	.	.	.	.	.	.	.	.	.	.	.
.	.	24gg\JJ	.	.	.	.	.	.	.	.	.	.	.	.
!	!	!	!	!	!	!	!	!	!	!	!	!LO:DY:b	!	!
8B\	.	24ff#\LL	.	.	.	.	.	.	8dd\	.	8ff#\	p	.	.
.	.	24gg\	.	.	.	.	.	.	.	.	.	.	.	.
.	.	24ff#\JJ	.	.	.	.	.	.	.	.	.	.	.	.
=56	=56	=56	=56	=56	=56	=56	=56	=56	=56	=56	=56	=56	=56	=56
!	!	!	!	!	!	!	!	!	!	!	!LO:LB:g=original	!	!	!
!	!	!LO:TX:a:t=problem: mixed beam	!	!	!	!	!	!	!	!	!LO:TX:a:t=problem: nuta niewidoczna - defekt rkp	!	!	!
4c\	.	16.ee\LL	.	1ryy	1ryy	.	.	1ryy	8g/	.	4ryy	.	1ryy	1ryy
.	.	32e/K	.	.	.	.	.	.	.	.	.	.	.	.
.	.	16ee\	.	.	.	.	.	.	8r	.	.	.	.	.
.	.	16ee\JJ	.	.	.	.	.	.	.	.	.	.	.	.
8r	.	24ee\LL	.	.	.	.	.	.	8b\	.	8r	.	.	.
.	.	24ffn\	.	.	.	.	.	.	.	.	.	.	.	.
.	.	24ee\JJ	.	.	.	.	.	.	.	.	.	.	.	.
!	!	!	!	!	!	!	!	!	!LO:TX:a:t=problem: brak pauzy	!	!	!	!	!
8G#X\	.	24dd\LL	.	.	.	.	.	.	8r	.	8dd\L	.	.	.
.	.	24ee\	.	.	.	.	.	.	.	.	.	.	.	.
.	.	24dd\JJ	.	.	.	.	.	.	.	.	.	.	.	.
4A\	.	16cc\LL	.	.	.	.	.	.	4e/	.	8cc\J	.	.	.
.	.	16a\	.	.	.	.	.	.	.	.	.	.	.	.
.	.	16ccc\	.	.	.	.	.	.	.	.	8r	.	.	.
.	.	16ccc\JJ	.	.	.	.	.	.	.	.	.	.	.	.
!	!	!	!	!	!	!	!	!	!LO:TX:a:t=SIC:s=4f	!	!	!	!	!
8F#\L	.	24ccc\LL	.	.	.	.	.	.	8a#X/L	.	8cc\L	.	.	.
.	.	24aa\	.	.	.	.	.	.	.	.	.	.	.	.
.	.	24ccc\JJ	.	.	.	.	.	.	.	.	.	.	.	.
8Gn\J	.	24bb\LL	.	.	.	.	.	.	8g/J	.	8b\J	.	.	.
.	.	24ccc\	.	.	.	.	.	.	.	.	.	.	.	.
.	.	24bb\JJ	.	.	.	.	.	.	.	.	.	.	.	.
=57	=57	=57	=57	=57	=57	=57	=57	=57	=57	=57	=57	=57	=57	=57
!LO:LB:g=original	!	!	!	!	!	!	!	!	!LO:LB:g=original	!	!	!	!	!
*	*	*^	*	*	*	*	*	*	*	*	*	*	*	*
8c\L	.	8ff#\L	4ryy	.	1ryy	1ryy	.	.	1ryy	8e/L	.	8a/L	.	1ryy	1ryy
!	!	!LO:TX:a:t=problem: brak oznaczenia trioli	!	!	!	!	!	!	!	!LO:TUP:b	!	!LO:TUP:b	!	!	!
8A\J	.	24ccc\L	.	.	.	.	.	.	.	24e/L	.	24cc/L	.	.	.
.	.	24bb\	.	.	.	.	.	.	.	24d/	.	24b/	.	.	.
.	.	24aa\JJ	.	.	.	.	.	.	.	24c/JJ	.	24a/JJ	.	.	.
!LO:TX:a:t=problem: mixed beam	!	!	!	!	!	!	!	!	!	!	!	!	!	!	!
8d\L	.	16aa\LL	4ryy	.	.	.	.	.	.	16c/LL	.	16a/LL	.	.	.
.	.	16gg\	.	.	.	.	.	.	.	16B/	.	16g/	.	.	.
8D/J	.	16gg\	.	.	.	.	.	.	.	16B/	.	16g/	.	.	.
.	.	16ff#\JJ	.	.	.	.	.	.	.	16A/JJ	.	16f#/JJ	.	.	.
8G\L	.	16gg\LL	4ryy	.	.	.	.	.	.	8B/L	.	16g/LL	.	.	.
.	.	16b\J 16dd	.	.	.	.	.	.	.	.	.	16d/J	.	.	.
8G\J	.	8.b\J 8.dd	.	.	.	.	.	.	.	8.B/J	.	8.d/J	.	.	.
8G\L	.	.	16ryy	.	.	.	.	.	.	.	.	.	.	.	.
.	.	16ffn/LL	16dd\LL	.	.	.	.	.	.	16d/LL	.	16fn/LL	.	.	.
8G\J	.	16ee/	16cc\	.	.	.	.	.	.	16c/	.	16e/	.	.	.
.	.	16ff#X/JJ	16a\JJ	.	.	.	.	.	.	16A/JJ	.	16f#X/JJ	.	.	.
=58	=58	=58	=58	=58	=58	=58	=58	=58	=58	=58	=58	=58	=58	=58	=58
!	!	!	!	!	!	!LO:TX:b:t=Osanna ut Pleni	!	!	!LO:TX:b:t=Osanna ut Pleni	!	!	!LO:N:vis=8	!	!LO:TX:b:t=osuna Pleni	!LO:TX:b:t=Osanna ut Pleni
8G\L	.	16gg/LL	16b\LL	.	1ryy	1ryy	1r	.	1ryy	8B/L	.	16g/LL	.	1ryy	1ryy
.	.	16dd/J	16b\J	.	.	.	.	.	.	.	.	16d/J	.	.	.
!	!	!	!	!	!	!	!	!	!	!	!	!LO:N:vis=16.	!	!	!
8G\J	.	8.dd/J	8.b\J	.	.	.	.	.	.	8.B/J	.	8.d/J	.	.	.
8G\L	.	.	.	.	.	.	.	.	.	.	.	.	.	.	.
.	.	16ffn/LL	16dd\LL	.	.	.	.	.	.	16d/LL	.	16fn/LL	.	.	.
8G\J	.	16ee/	16cc\	.	.	.	.	.	.	16c/	.	16e/	.	.	.
.	.	16ff#X/JJ	16a\JJ	.	.	.	.	.	.	16A/JJ	.	16f#X/JJ	.	.	.
8G\L	.	8gg/L	8b\L 8dd	.	.	.	.	.	.	8B/L	.	8g/L	.	.	.
8G\J	.	8gg/J	8b\J 8dd	.	.	.	.	.	.	8B/J	.	8g/J	.	.	.
!	!	!LO:TX:b:t=Osanna ut Pleni	!	!	!	!	!	!	!	!	!	!	!	!	!
!	!	!LO:TX:b:t=Finis	!	!	!	!	!	!	!	!LO:TX:b:t=Osanna ut Pleni	!	!LO:TX:b:t=Fin	!	!	!
4G\	.	4gg/	4b\ 4dd	.	.	.	.	.	.	4B/	.	4g/	.	.	.
*	*	*v	*v	*	*	*	*	*	*	*	*	*	*	*	*
==	==	==;	==	==	==	==	==	==	==;	==	==;	==	==	==
*-	*-	*-	*-	*-	*-	*-	*-	*-	*-	*-	*-	*-	*-	*-
!!!system-decoration: [g1][g2][g3]{(g4)}
!!!RDF**kern: >= above
!!!RDF**kern: <= below
!!!ENC: Anna Matuszewska
!!!END: 2020-05-17
